luts/ColdNegx33.cube
TITLE "ColdNegative"
#LUMIXPHOTOSTYLE STD
DOMAIN_MIN 0 0 0
DOMAIN_MAX 1 1 1
LUT_3D_SIZE 5
0.094300000 0.072000000 0.032100000
0.130350000 0.072800000 0.029400000
0.470700000 0.187800000 0.048900000
0.757500000 0.345950000 0.125250000
0.879700000 0.496900000 0.356100000
0.111550000 0.172850000 0.039450000
0.305200000 0.301800000 0.043700000
0.610150000 0.327000000 0.079000000
0.794050000 0.409700000 0.153950000
0.880150000 0.530950000 0.364650000
0.291600000 0.585100000 0.207700000
0.337050000 0.638800000 0.280550000
0.669000000 0.712000000 0.165400000
0.840750000 0.652450000 0.295850000
0.883000000 0.683300000 0.444500000
0.439400000 0.788350000 0.597050000
0.452850000 0.797350000 0.615050000
0.521900000 0.824900000 0.616200000
0.802900000 0.835450000 0.505400000
0.886350000 0.809150000 0.579300000
0.510200000 0.871100000 0.741900000
0.526350000 0.870200000 0.749750000
0.594000000 0.872200000 0.770000000
0.691500000 0.892650000 0.749850000
0.864100000 0.888700000 0.733300000
0.103800000 0.084250000 0.059350000
0.224100000 0.136800000 0.147150000
0.528350000 0.209900000 0.122100000
0.760150000 0.343600000 0.175300000
0.879100000 0.497250000 0.401550000
0.127350000 0.196900000 0.103850000
0.381450000 0.389250000 0.296200000
0.670950000 0.292850000 0.091950000
0.829900000 0.410850000 0.194500000
0.879700000 0.504950000 0.374800000
0.309400000 0.604050000 0.264250000
0.361500000 0.656300000 0.365100000
0.682350000 0.722200000 0.304950000
0.846500000 0.647250000 0.352150000
0.882600000 0.674300000 0.470800000
0.445350000 0.792200000 0.611450000
0.460000000 0.800150000 0.629100000
0.553200000 0.819250000 0.663900000
0.805250000 0.836350000 0.549250000
0.886300000 0.807650000 0.607900000
0.512900000 0.872350000 0.747150000
0.530900000 0.871300000 0.754600000
0.600800000 0.873000000 0.774250000
0.691450000 0.892400000 0.761150000
0.865000000 0.888700000 0.745550000
0.191600000 0.180000000 0.310700000
0.287500000 0.242650000 0.496600000
0.612300000 0.441900000 0.634700000
0.817300000 0.507300000 0.658650000
0.878000000 0.535200000 0.613300000
0.222600000 0.249750000 0.351800000
0.312250000 0.312000000 0.602700000
0.675200000 0.499950000 0.697650000
0.846750000 0.520700000 0.658950000
0.878150000 0.529950000 0.583850000
0.386900000 0.612000000 0.570900000
0.432900000 0.669450000 0.638050000
0.702100000 0.732500000 0.729900000
0.873350000 0.616700000 0.598150000
0.879800000 0.596900000 0.557400000
0.463700000 0.800700000 0.653950000
0.476100000 0.810850000 0.669100000
0.601900000 0.821950000 0.719350000
0.812600000 0.838550000 0.680000000
0.886200000 0.805750000 0.675900000
0.519200000 0.877500000 0.762100000
0.537500000 0.875850000 0.768800000
0.617600000 0.876000000 0.787100000
0.714600000 0.886900000 0.798100000
0.867400000 0.888900000 0.779800000
0.355000000 0.360150000 0.674600000
0.412700000 0.402200000 0.768450000
0.613300000 0.497150000 0.796150000
0.809600000 0.606150000 0.814100000
0.874750000 0.628700000 0.787100000
0.380950000 0.422350000 0.690200000
0.419100000 0.438900000 0.760300000
0.619500000 0.514850000 0.834300000
0.823250000 0.622800000 0.826750000
0.875000000 0.633450000 0.783750000
0.452750000 0.600800000 0.726000000
0.470750000 0.614450000 0.759200000
0.572400000 0.630200000 0.846200000
0.833000000 0.701150000 0.836350000
0.877600000 0.690550000 0.783150000
0.524750000 0.795650000 0.766500000
0.533850000 0.805450000 0.777750000
0.590400000 0.826500000 0.804900000
0.817800000 0.832200000 0.832200000
0.883200000 0.770000000 0.767300000
0.532950000 0.883350000 0.788250000
0.532000000 0.888050000 0.793100000
0.613750000 0.884900000 0.808000000
0.754700000 0.884350000 0.832550000
0.871600000 0.889000000 0.827850000
0.490500000 0.521300000 0.836300000
0.521550000 0.533250000 0.870250000
0.600400000 0.541100000 0.870400000
0.764950000 0.613800000 0.860550000
0.871900000 0.687300000 0.867900000
0.502000000 0.557850000 0.839250000
0.528750000 0.565550000 0.869700000
0.579750000 0.543200000 0.870400000
0.758600000 0.615200000 0.860950000
0.872200000 0.693400000 0.868000000
0.531300000 0.657200000 0.839500000
0.547750000 0.661550000 0.857600000
0.592200000 0.645400000 0.869800000
0.756950000 0.675900000 0.860950000
0.872300000 0.752100000 0.869000000
0.573100000 0.783050000 0.844850000
0.580300000 0.786000000 0.852300000
0.611950000 0.789650000 0.869300000
0.753150000 0.778950000 0.866350000
0.874100000 0.815050000 0.873500000
0.599100000 0.880500000 0.855600000
0.600150000 0.883800000 0.859000000
0.636300000 0.889200000 0.867000000
0.759500000 0.888950000 0.875100000
0.879100000 0.886500000 0.888600000
