luts/ColdNegx33.cube
TITLE "ColdNegative"
#LUMIXPHOTOSTYLE STD
DOMAIN_MIN 0 0 0
DOMAIN_MAX 1 1 1
LUT_3D_SIZE 33
0.094300000 0.072000000 0.032100000
0.094300000 0.072000000 0.032100000
0.094387500 0.072012500 0.032100000
0.095337500 0.072175000 0.032100000
0.097350000 0.072575000 0.032100000
0.100125000 0.072893750 0.032068750
0.105075000 0.073137500 0.031850000
0.114318750 0.072937500 0.031118750
0.130350000 0.072800000 0.029400000
0.155493750 0.074912500 0.026781250
0.192512500 0.082087500 0.025475000
0.237581250 0.093612500 0.025468750
0.287300000 0.107500000 0.025800000
0.334725000 0.125768750 0.029393750
0.380700000 0.146175000 0.035012500
0.426318750 0.166881250 0.041887500
0.470700000 0.187800000 0.048900000
0.513812500 0.208318750 0.056425000
0.554637500 0.228937500 0.063762500
0.593718750 0.248900000 0.072018750
0.630800000 0.269150000 0.080850000
0.665968750 0.289006250 0.090506250
0.699075000 0.308600000 0.100725000
0.729775000 0.327256250 0.112087500
0.757500000 0.345950000 0.125250000
0.782243750 0.364868750 0.140831250
0.804437500 0.384200000 0.159575000
0.824687500 0.404781250 0.183681250
0.843400000 0.427575000 0.216675000
0.860943750 0.453087500 0.260443750
0.877650000 0.480975000 0.313575000
0.879693750 0.493581250 0.350093750
0.879700000 0.496900000 0.356100000
0.094350000 0.072056250 0.032106250
0.095225000 0.072925000 0.032093750
0.096812500 0.073662500 0.032087500
0.098493750 0.074075000 0.032081250
0.100618750 0.074475000 0.032025000
0.104131250 0.074812500 0.031787500
0.110587500 0.075143750 0.031368750
0.122156250 0.075343750 0.030212500
0.140962500 0.076212500 0.028168750
0.168818750 0.080268750 0.026143750
0.206206250 0.088762500 0.025462500
0.250487500 0.100206250 0.025500000
0.298381250 0.114250000 0.026375000
0.344156250 0.132318750 0.030487500
0.389225000 0.152012500 0.036281250
0.433850000 0.172043750 0.042975000
0.477325000 0.192487500 0.049968750
0.519593750 0.212531250 0.057587500
0.559568750 0.232743750 0.064812500
0.598081250 0.252431250 0.073000000
0.634600000 0.272325000 0.081912500
0.669268750 0.291987500 0.091531250
0.701950000 0.311250000 0.101700000
0.732131250 0.329662500 0.113106250
0.759412500 0.348193750 0.126381250
0.783762500 0.366943750 0.142131250
0.805687500 0.386225000 0.161168750
0.825712500 0.406581250 0.185231250
0.844200000 0.429206250 0.218412500
0.861606250 0.454775000 0.262700000
0.877725000 0.482031250 0.315443750
0.879693750 0.494243750 0.350506250
0.879700000 0.497768750 0.356418750
0.095350000 0.073237500 0.032237500
0.096512500 0.075162500 0.032200000
0.099300000 0.077012500 0.031950000
0.102856250 0.078062500 0.031768750
0.106200000 0.078287500 0.031575000
0.111787500 0.078650000 0.031087500
0.120362500 0.079000000 0.030250000
0.134068750 0.079837500 0.028818750
0.155037500 0.082100000 0.026850000
0.184556250 0.087643750 0.025587500
0.222237500 0.096500000 0.025462500
0.265831250 0.107543750 0.025500000
0.311212500 0.121762500 0.027125000
0.355025000 0.139456250 0.031675000
0.398925000 0.158362500 0.037700000
0.442412500 0.177881250 0.044318750
0.484912500 0.197625000 0.051225000
0.526206250 0.217268750 0.058706250
0.565312500 0.236950000 0.066025000
0.603125000 0.256425000 0.074137500
0.638962500 0.275950000 0.083025000
0.673043750 0.295362500 0.092631250
0.705150000 0.314250000 0.102825000
0.734756250 0.332437500 0.114443750
0.761562500 0.350787500 0.127775000
0.785500000 0.369362500 0.143637500
0.807100000 0.388500000 0.162937500
0.826887500 0.408581250 0.186912500
0.845150000 0.431100000 0.220312500
0.862406250 0.456681250 0.265237500
0.877812500 0.483312500 0.317425000
0.879693750 0.495075000 0.351012500
0.879700000 0.499000000 0.356775000
0.097550000 0.076256250 0.032575000
0.098518750 0.078125000 0.032531250
0.100331250 0.081062500 0.031831250
0.106318750 0.084306250 0.031281250
0.115887500 0.086918750 0.030281250
0.124625000 0.087056250 0.029475000
0.138331250 0.088093750 0.028143750
0.156556250 0.089937500 0.026862500
0.179681250 0.093437500 0.025718750
0.209687500 0.099468750 0.025456250
0.246125000 0.107837500 0.025500000
0.287750000 0.118675000 0.025800000
0.329675000 0.132943750 0.028631250
0.371237500 0.149837500 0.033650000
0.413131250 0.167675000 0.039750000
0.454893750 0.186412500 0.046262500
0.495912500 0.205143750 0.053287500
0.535612500 0.224075000 0.060250000
0.573518750 0.242956250 0.067818750
0.610168750 0.262118750 0.075868750
0.645068750 0.281112500 0.084756250
0.678250000 0.300112500 0.094250000
0.709575000 0.318456250 0.104531250
0.738431250 0.336318750 0.116231250
0.764600000 0.354425000 0.129731250
0.787956250 0.372775000 0.145743750
0.809093750 0.391787500 0.165381250
0.828543750 0.411625000 0.189600000
0.846512500 0.433843750 0.223043750
0.863543750 0.459487500 0.268712500
0.877937500 0.485087500 0.320225000
0.879693750 0.496475000 0.351637500
0.879700000 0.500850000 0.357431250
0.100175000 0.080550000 0.033150000
0.101250000 0.083137500 0.032981250
0.102825000 0.087537500 0.032325000
0.108075000 0.094168750 0.030581250
0.121175000 0.101000000 0.029000000
0.145637500 0.106987500 0.027156250
0.163150000 0.106587500 0.026237500
0.186312500 0.108706250 0.025443750
0.214850000 0.113050000 0.025500000
0.245568750 0.118618750 0.025625000
0.279862500 0.126175000 0.026025000
0.316687500 0.135975000 0.027525000
0.354525000 0.149050000 0.031425000
0.393125000 0.164393750 0.036718750
0.432650000 0.180912500 0.042725000
0.471862500 0.198362500 0.049025000
0.511000000 0.216000000 0.056075000
0.548418750 0.234056250 0.062768750
0.584762500 0.251725000 0.070225000
0.619906250 0.270387500 0.078243750
0.653300000 0.288375000 0.087200000
0.685218750 0.306975000 0.096531250
0.715525000 0.324562500 0.106850000
0.743281250 0.342012500 0.118687500
0.768500000 0.359675000 0.132275000
0.791131250 0.377725000 0.148575000
0.811662500 0.396487500 0.168687500
0.830650000 0.416175000 0.193768750
0.848225000 0.437825000 0.226900000
0.864931250 0.463406250 0.273393750
0.878112500 0.487800000 0.323962500
0.879693750 0.498662500 0.352687500
0.879700000 0.503650000 0.358275000
0.103387500 0.088525000 0.034306250
0.104631250 0.092893750 0.033981250
0.106018750 0.099743750 0.033100000
0.110687500 0.111212500 0.030868750
0.122612500 0.123393750 0.027612500
0.150418750 0.133506250 0.026050000
0.193725000 0.142800000 0.025750000
0.220462500 0.141868750 0.025937500
0.250112500 0.143543750 0.026468750
0.284262500 0.148168750 0.027281250
0.319593750 0.154993750 0.029000000
0.353368750 0.163068750 0.031706250
0.387800000 0.173456250 0.035631250
0.422243750 0.186037500 0.040937500
0.457862500 0.200250000 0.046600000
0.493881250 0.215375000 0.052812500
0.530006250 0.231587500 0.059256250
0.564906250 0.247962500 0.066131250
0.599362500 0.264981250 0.073400000
0.632237500 0.282087500 0.081512500
0.664256250 0.299312500 0.090193750
0.694500000 0.316650000 0.099631250
0.723143750 0.333262500 0.110093750
0.749543750 0.350087500 0.121968750
0.773462500 0.367125000 0.135637500
0.795131250 0.384675000 0.152250000
0.814937500 0.403037500 0.173018750
0.833300000 0.422475000 0.199112500
0.850412500 0.443381250 0.231825000
0.866662500 0.468818750 0.279287500
0.878362500 0.491731250 0.328712500
0.879700000 0.502031250 0.354031250
0.879700000 0.507668750 0.359475000
0.106300000 0.105237500 0.035687500
0.107256250 0.112325000 0.035093750
0.107687500 0.122125000 0.033862500
0.112362500 0.134837500 0.032337500
0.124950000 0.153375000 0.028050000
0.150431250 0.168275000 0.025500000
0.195037500 0.179737500 0.026025000
0.252512500 0.190968750 0.029750000
0.286475000 0.189550000 0.031200000
0.318937500 0.190062500 0.033400000
0.354562500 0.194087500 0.036025000
0.390587500 0.200550000 0.039181250
0.425112500 0.208437500 0.042525000
0.457156250 0.217468750 0.046956250
0.489550000 0.228175000 0.051925000
0.521343750 0.239950000 0.057625000
0.553512500 0.253700000 0.063637500
0.585562500 0.267918750 0.070237500
0.616950000 0.283025000 0.077587500
0.647587500 0.298550000 0.085493750
0.677412500 0.314462500 0.094225000
0.705768750 0.330012500 0.103581250
0.732287500 0.345450000 0.114312500
0.757100000 0.361275000 0.126300000
0.779462500 0.377525000 0.140400000
0.800006250 0.394187500 0.156937500
0.818962500 0.411950000 0.178512500
0.836612500 0.430975000 0.205881250
0.853025000 0.451312500 0.239062500
0.868712500 0.476125000 0.286587500
0.878575000 0.497275000 0.334737500
0.879700000 0.506875000 0.355756250
0.879700000 0.513225000 0.360825000
0.107237500 0.134456250 0.037112500
0.107943750 0.143293750 0.036337500
0.109600000 0.154256250 0.034856250
0.115137500 0.167881250 0.033281250
0.129125000 0.185231250 0.031006250
0.152793750 0.207906250 0.025937500
0.191312500 0.225481250 0.025875000
0.247525000 0.236500000 0.031493750
0.314750000 0.248118750 0.041281250
0.354412500 0.247256250 0.044500000
0.388025000 0.246187500 0.046725000
0.423081250 0.248212500 0.049468750
0.458293750 0.253393750 0.052512500
0.491850000 0.259987500 0.056137500
0.523250000 0.266850000 0.059856250
0.552443750 0.274775000 0.064212500
0.581537500 0.285100000 0.069806250
0.609850000 0.295750000 0.075575000
0.637775000 0.307831250 0.082500000
0.665812500 0.320831250 0.090400000
0.692700000 0.334331250 0.099131250
0.718750000 0.347862500 0.108650000
0.743018750 0.361975000 0.119481250
0.765481250 0.376500000 0.132050000
0.786312500 0.391712500 0.146618750
0.805662500 0.407231250 0.163818750
0.823550000 0.423706250 0.185181250
0.840350000 0.442193750 0.214056250
0.856050000 0.462312500 0.249318750
0.871168750 0.486050000 0.296081250
0.878837500 0.504593750 0.342068750
0.879700000 0.513581250 0.357843750
0.879787500 0.520775000 0.362531250
0.111550000 0.172850000 0.039450000
0.113762500 0.181737500 0.038687500
0.116900000 0.192475000 0.037400000
0.123037500 0.207656250 0.035468750
0.137175000 0.222075000 0.035300000
0.157625000 0.247468750 0.029181250
0.189900000 0.274362500 0.026137500
0.239250000 0.292893750 0.030743750
0.305200000 0.301800000 0.043700000
0.378025000 0.312775000 0.056243750
0.422887500 0.312725000 0.060450000
0.455681250 0.309800000 0.062706250
0.488375000 0.309650000 0.065250000
0.521256250 0.312368750 0.068212500
0.552900000 0.316425000 0.071400000
0.582781250 0.321587500 0.075081250
0.610150000 0.327000000 0.079000000
0.636143750 0.333081250 0.083025000
0.661775000 0.341000000 0.088812500
0.686193750 0.350250000 0.096450000
0.710200000 0.360375000 0.105125000
0.733093750 0.371612500 0.114906250
0.754812500 0.383437500 0.125887500
0.775006250 0.396318750 0.138625000
0.794050000 0.409700000 0.153950000
0.812062500 0.424143750 0.172525000
0.828787500 0.439300000 0.194512500
0.844425000 0.456350000 0.223612500
0.859325000 0.476100000 0.261375000
0.873943750 0.498462500 0.307500000
0.879137500 0.513825000 0.349525000
0.879850000 0.522750000 0.360387500
0.880150000 0.530950000 0.364650000
0.123681250 0.217037500 0.044487500
0.127000000 0.225775000 0.043993750
0.131075000 0.236350000 0.043281250
0.137481250 0.251781250 0.041837500
0.149768750 0.267762500 0.042918750
0.167468750 0.287943750 0.040781250
0.193006250 0.320450000 0.029850000
0.233187500 0.348350000 0.031843750
0.292012500 0.366356250 0.042162500
0.365125000 0.373175000 0.057593750
0.439600000 0.381568750 0.072956250
0.487300000 0.382131250 0.078118750
0.517918750 0.376975000 0.080356250
0.548356250 0.374518750 0.082743750
0.578331250 0.374281250 0.085443750
0.608081250 0.375806250 0.088575000
0.635387500 0.377393750 0.091343750
0.661562500 0.379700000 0.094350000
0.685381250 0.382406250 0.098075000
0.707775000 0.386943750 0.103793750
0.728868750 0.393481250 0.112043750
0.748693750 0.401618750 0.122312500
0.767600000 0.410768750 0.133943750
0.785425000 0.421031250 0.147362500
0.802418750 0.432325000 0.162600000
0.818850000 0.444812500 0.182431250
0.834437500 0.458662500 0.206431250
0.848950000 0.473687500 0.234987500
0.863106250 0.492668750 0.275206250
0.876437500 0.512825000 0.320343750
0.879756250 0.525581250 0.355000000
0.880206250 0.534681250 0.363125000
0.880400000 0.543487500 0.367500000
0.142075000 0.266950000 0.053825000
0.145743750 0.275687500 0.053906250
0.150087500 0.286087500 0.053837500
0.156531250 0.301287500 0.053281250
0.166687500 0.319450000 0.053862500
0.182118750 0.335812500 0.059287500
0.201975000 0.362975000 0.049712500
0.233068750 0.396925000 0.037487500
0.280900000 0.422212500 0.043262500
0.346993750 0.438818750 0.055562500
0.423237500 0.443100000 0.072250000
0.496600000 0.447775000 0.090587500
0.545525000 0.448125000 0.096900000
0.574275000 0.441631250 0.099125000
0.602475000 0.436750000 0.101175000
0.629937500 0.433500000 0.103368750
0.656537500 0.431712500 0.105650000
0.682418750 0.430931250 0.108375000
0.705712500 0.430412500 0.111275000
0.726737500 0.430418750 0.114812500
0.746200000 0.432400000 0.120500000
0.763943750 0.437143750 0.130737500
0.780562500 0.443237500 0.143000000
0.796400000 0.450743750 0.157462500
0.811575000 0.459562500 0.174300000
0.826000000 0.469375000 0.193387500
0.840175000 0.481350000 0.219475000
0.853912500 0.494637500 0.249306250
0.867412500 0.511887500 0.290625000
0.877981250 0.528906250 0.332825000
0.880275000 0.539900000 0.359100000
0.880387500 0.549137500 0.365237500
0.880400000 0.558687500 0.372775000
0.164256250 0.322731250 0.067837500
0.167781250 0.331268750 0.068312500
0.171975000 0.341118750 0.068818750
0.178118750 0.355343750 0.069331250
0.186812500 0.373631250 0.070062500
0.199750000 0.390137500 0.075443750
0.215968750 0.409575000 0.079556250
0.238743750 0.439712500 0.061668750
0.276112500 0.469187500 0.049268750
0.330750000 0.490218750 0.056225000
0.400956250 0.504275000 0.069625000
0.477193750 0.506356250 0.087193750
0.547787500 0.507287500 0.107381250
0.596531250 0.506162500 0.115900000
0.624643750 0.498831250 0.118331250
0.650287500 0.492293750 0.120162500
0.674537500 0.486987500 0.121900000
0.698362500 0.482912500 0.124050000
0.720968750 0.479856250 0.126850000
0.741937500 0.477575000 0.129731250
0.760775000 0.476056250 0.133243750
0.777331250 0.475943750 0.140125000
0.792525000 0.479075000 0.152912500
0.806768750 0.483768750 0.168250000
0.820381250 0.490000000 0.186825000
0.833400000 0.497618750 0.208237500
0.846112500 0.506881250 0.234087500
0.858850000 0.519081250 0.267418750
0.871550000 0.534131250 0.307381250
0.878862500 0.547125000 0.344256250
0.880400000 0.557037500 0.362462500
0.880675000 0.566518750 0.369918750
0.880881250 0.576462500 0.380187500
0.188350000 0.381775000 0.085975000
0.191612500 0.389568750 0.086831250
0.195475000 0.398562500 0.087762500
0.201018750 0.411218750 0.089018750
0.208550000 0.427875000 0.090225000
0.219168750 0.444781250 0.094406250
0.233000000 0.458575000 0.104787500
0.251281250 0.480287500 0.103381250
0.277975000 0.509525000 0.078675000
0.320375000 0.533106250 0.062700000
0.379687500 0.549125000 0.069575000
0.451125000 0.560512500 0.083706250
0.526050000 0.561400000 0.102025000
0.593193750 0.559425000 0.124143750
0.640600000 0.556050000 0.135387500
0.667531250 0.548400000 0.138493750
0.690400000 0.540875000 0.140475000
0.712087500 0.534156250 0.142162500
0.732912500 0.528437500 0.144325000
0.752637500 0.523681250 0.146806250
0.771175000 0.520225000 0.150000000
0.787781250 0.516962500 0.153362500
0.802237500 0.516000000 0.162562500
0.815456250 0.518043750 0.179193750
0.828250000 0.522000000 0.199225000
0.840387500 0.528037500 0.223800000
0.852000000 0.535287500 0.250487500
0.863925000 0.546143750 0.286331250
0.875875000 0.558950000 0.326200000
0.879912500 0.567931250 0.355312500
0.880925000 0.577000000 0.368362500
0.881000000 0.586406250 0.378768750
0.881175000 0.596000000 0.389175000
0.212787500 0.440650000 0.107806250
0.215831250 0.447168750 0.109037500
0.219481250 0.454512500 0.110468750
0.224425000 0.465137500 0.112293750
0.231218750 0.478956250 0.114587500
0.240475000 0.494181250 0.118618750
0.252318750 0.506687500 0.128200000
0.266687500 0.521137500 0.137575000
0.288043750 0.543262500 0.130356250
0.317743750 0.569606250 0.102737500
0.363418750 0.588300000 0.077437500
0.425737500 0.600281250 0.082443750
0.497187500 0.608531250 0.097387500
0.569537500 0.608737500 0.117037500
0.632668750 0.604256250 0.141668750
0.677781250 0.598975000 0.156768750
0.702937500 0.590856250 0.160518750
0.723200000 0.582906250 0.162518750
0.742837500 0.575175000 0.164243750
0.760975000 0.568362500 0.166475000
0.778175000 0.562506250 0.168881250
0.794450000 0.557725000 0.172006250
0.809131250 0.554050000 0.176293750
0.822068750 0.553037500 0.188925000
0.834200000 0.554518750 0.209843750
0.846068750 0.558681250 0.237306250
0.857568750 0.565218750 0.269181250
0.868987500 0.574418750 0.306056250
0.878287500 0.583975000 0.342575000
0.880937500 0.591006250 0.367512500
0.881400000 0.599181250 0.380787500
0.881343750 0.607981250 0.390456250
0.881525000 0.617275000 0.399768750
0.238275000 0.494225000 0.134375000
0.241075000 0.499500000 0.135850000
0.244250000 0.505600000 0.137612500
0.248650000 0.514125000 0.140075000
0.254437500 0.525487500 0.143150000
0.262412500 0.538731250 0.147706250
0.273037500 0.550562500 0.156762500
0.285312500 0.561037500 0.171243750
0.301500000 0.576687500 0.175912500
0.324075000 0.598137500 0.163275000
0.355275000 0.621687500 0.133462500
0.404425000 0.636168750 0.107618750
0.468375000 0.644587500 0.097812500
0.538587500 0.649900000 0.110856250
0.608062500 0.650312500 0.132562500
0.666312500 0.643556250 0.160762500
0.708325000 0.635900000 0.179850000
0.732075000 0.627950000 0.184256250
0.750587500 0.619175000 0.186337500
0.767956250 0.611031250 0.188137500
0.784062500 0.603650000 0.190450000
0.799187500 0.597231250 0.193025000
0.813287500 0.591737500 0.196112500
0.826062500 0.588262500 0.204818750
0.837800000 0.587862500 0.226550000
0.849125000 0.590093750 0.256937500
0.860375000 0.594812500 0.292537500
0.871693750 0.602318750 0.333537500
0.880000000 0.609812500 0.368950000
0.881718750 0.615631250 0.385106250
0.881812500 0.622975000 0.395312500
0.881843750 0.631137500 0.403756250
0.881862500 0.639650000 0.411937500
0.264831250 0.542118750 0.166475000
0.267412500 0.546443750 0.168475000
0.270387500 0.551418750 0.170775000
0.274318750 0.558575000 0.173950000
0.279331250 0.568012500 0.177925000
0.285600000 0.579387500 0.183012500
0.294262500 0.590218750 0.192168750
0.304893750 0.598481250 0.208475000
0.317781250 0.608643750 0.225681250
0.334343750 0.625525000 0.222968750
0.357381250 0.645675000 0.202431250
0.391518750 0.665056250 0.170906250
0.444193750 0.675900000 0.151375000
0.508437500 0.681762500 0.144925000
0.576225000 0.685012500 0.143531250
0.640718750 0.684068750 0.148462500
0.694831250 0.676912500 0.180037500
0.734100000 0.668175000 0.204406250
0.756087500 0.659750000 0.209912500
0.772968750 0.651337500 0.212350000
0.788750000 0.643006250 0.215237500
0.803062500 0.635418750 0.220762500
0.816262500 0.628825000 0.228850000
0.828287500 0.623256250 0.240206250
0.839600000 0.619643750 0.256500000
0.850437500 0.620043750 0.285231250
0.860975000 0.623550000 0.322206250
0.871431250 0.629175000 0.361381250
0.880100000 0.635368750 0.396206250
0.881900000 0.640068750 0.409343750
0.882156250 0.646825000 0.415725000
0.882462500 0.654175000 0.420056250
0.882556250 0.662175000 0.425212500
0.291600000 0.585100000 0.207700000
0.293737500 0.588631250 0.210056250
0.296162500 0.592712500 0.212850000
0.299393750 0.598256250 0.216881250
0.303575000 0.605800000 0.222150000
0.308912500 0.615256250 0.228781250
0.316125000 0.624675000 0.239200000
0.325700000 0.631643750 0.257125000
0.337050000 0.638800000 0.280550000
0.350537500 0.650231250 0.291993750
0.366462500 0.667400000 0.279037500
0.389000000 0.685893750 0.248468750
0.426500000 0.700825000 0.213775000
0.481918750 0.708306250 0.196600000
0.545250000 0.712800000 0.179362500
0.609518750 0.714050000 0.158168750
0.669000000 0.712000000 0.165400000
0.719462500 0.705668750 0.202181250
0.755962500 0.696775000 0.241350000
0.776581250 0.688800000 0.256462500
0.791500000 0.680400000 0.264400000
0.805243750 0.672356250 0.270856250
0.818012500 0.664725000 0.276862500
0.829793750 0.657975000 0.284825000
0.840750000 0.652450000 0.295850000
0.851256250 0.649568750 0.314187500
0.861250000 0.649937500 0.342337500
0.871093750 0.654418750 0.380968750
0.880450000 0.659650000 0.418850000
0.882600000 0.663075000 0.432012500
0.882600000 0.668850000 0.436425000
0.882693750 0.675787500 0.440556250
0.883000000 0.683300000 0.444500000
0.317268750 0.622400000 0.261900000
0.319050000 0.625325000 0.264906250
0.321137500 0.628725000 0.268250000
0.324025000 0.633462500 0.272887500
0.327787500 0.639631250 0.279137500
0.332368750 0.647200000 0.287137500
0.338393750 0.655025000 0.298737500
0.346656250 0.660981250 0.317237500
0.356918750 0.666581250 0.340306250
0.369937500 0.673193750 0.365218750
0.383262500 0.685393750 0.366112500
0.397762500 0.701712500 0.343093750
0.418918750 0.718700000 0.300400000
0.458112500 0.730687500 0.254550000
0.515156250 0.736093750 0.224362500
0.577968750 0.739275000 0.198843750
0.639256250 0.739306250 0.191693750
0.693906250 0.736562500 0.208350000
0.740243750 0.730643750 0.250775000
0.773918750 0.722050000 0.298931250
0.793237500 0.714043750 0.312918750
0.806931250 0.705856250 0.318193750
0.819562500 0.698000000 0.322337500
0.831625000 0.690425000 0.326231250
0.842762500 0.683400000 0.331700000
0.852725000 0.677850000 0.341887500
0.862031250 0.675018750 0.359893750
0.871162500 0.677087500 0.393650000
0.880137500 0.681556250 0.433143750
0.882900000 0.685006250 0.453275000
0.883225000 0.689768750 0.458062500
0.883512500 0.695681250 0.460212500
0.883818750 0.702375000 0.461862500
0.342150000 0.655925000 0.326987500
0.343618750 0.658287500 0.330068750
0.345337500 0.660950000 0.333587500
0.347862500 0.664825000 0.338475000
0.351162500 0.669650000 0.344912500
0.355243750 0.675718750 0.352937500
0.360687500 0.682037500 0.364275000
0.367887500 0.686856250 0.381425000
0.376575000 0.691225000 0.402275000
0.387806250 0.696112500 0.425225000
0.400700000 0.703725000 0.439687500
0.412200000 0.716406250 0.427956250
0.424350000 0.731600000 0.395012500
0.442543750 0.747700000 0.333425000
0.485900000 0.756187500 0.282462500
0.545700000 0.760043750 0.250993750
0.607762500 0.761112500 0.235137500
0.665568750 0.760475000 0.235775000
0.715762500 0.757637500 0.258012500
0.757725000 0.751668750 0.304781250
0.789087500 0.743650000 0.346975000
0.807506250 0.735987500 0.360087500
0.820187500 0.728237500 0.364425000
0.831837500 0.720625000 0.367656250
0.843275000 0.713237500 0.370887500
0.853675000 0.706637500 0.376575000
0.862912500 0.701800000 0.387700000
0.871931250 0.700756250 0.412468750
0.880750000 0.702225000 0.444862500
0.883650000 0.704550000 0.465368750
0.883987500 0.709337500 0.475550000
0.884025000 0.714787500 0.480175000
0.884137500 0.720512500 0.480062500
0.366112500 0.685212500 0.395150000
0.367443750 0.687056250 0.397987500
0.368837500 0.689168750 0.401218750
0.370875000 0.692168750 0.405643750
0.373506250 0.696143750 0.411250000
0.376743750 0.701125000 0.418112500
0.381143750 0.706106250 0.427768750
0.387262500 0.709825000 0.442143750
0.394600000 0.713387500 0.458700000
0.403568750 0.717456250 0.475800000
0.414875000 0.722262500 0.493200000
0.424931250 0.731362500 0.492306250
0.433675000 0.744062500 0.470300000
0.445256250 0.757887500 0.429531250
0.464762500 0.771812500 0.360025000
0.513800000 0.777337500 0.315081250
0.574900000 0.779431250 0.288368750
0.634643750 0.779937500 0.275018750
0.688837500 0.778737500 0.278793750
0.734675000 0.775412500 0.303550000
0.773331250 0.769768750 0.349718750
0.802718750 0.762425000 0.389268750
0.819918750 0.755062500 0.401331250
0.832143750 0.747787500 0.405256250
0.843225000 0.740662500 0.407925000
0.853668750 0.733762500 0.411362500
0.862968750 0.727643750 0.418300000
0.871875000 0.723956250 0.433918750
0.880706250 0.722518750 0.456193750
0.883931250 0.723325000 0.475550000
0.884193750 0.727006250 0.485581250
0.884306250 0.731775000 0.492537500
0.884512500 0.737375000 0.497362500
0.387250000 0.711050000 0.456975000
0.388237500 0.712587500 0.459062500
0.389275000 0.714300000 0.461375000
0.390762500 0.716781250 0.464587500
