luts/SuperNegx33.cube
TITLE "SuperNegative"
#LUMIXPHOTOSTYLE STD
DOMAIN_MIN 0 0 0
DOMAIN_MAX 1 1 1
LUT_3D_SIZE 33
0.015686000 0.007843000 0.000000000
0.023406469 0.007843000 0.000000000
0.031127875 0.007843000 0.000000000
0.042401719 0.011397312 0.000000000
0.053921625 0.011765000 0.000000000
0.075980063 0.015073344 0.000000000
0.103676250 0.018872625 0.000000000
0.142157156 0.029657125 0.000000000
0.190195750 0.042156750 0.000000000
0.239338406 0.063358094 0.000000000
0.293382562 0.082598438 0.000000000
0.349999875 0.105759781 0.000000000
0.410784250 0.135293750 0.000000000
0.468014812 0.156004875 0.000000000
0.531372313 0.180882688 0.000000000
0.593137375 0.202328156 0.000000000
0.658823500 0.227451000 0.000000000
0.720588094 0.246813406 0.000000000
0.776715812 0.263970750 0.000000000
0.831494750 0.279289531 0.000000000
0.872549250 0.299509750 0.032352750
0.907353063 0.316421375 0.074632219
0.939460500 0.330637313 0.088970688
0.968014906 0.338357781 0.086275000
0.988235500 0.346078500 0.076470250
1.000000000 0.367279594 0.097549312
1.000000000 0.389705562 0.124510125
1.000000000 0.410293937 0.152696406
1.000000000 0.432353375 0.191176250
1.000000000 0.451347687 0.230024531
1.000000000 0.462990125 0.278921250
1.000000000 0.462745000 0.294363094
1.000000000 0.494118000 0.333333000
0.043014469 0.007843000 0.000000000
0.031250437 0.011642437 0.000000000
0.039093438 0.011765000 0.000000000
0.050244719 0.015563469 0.000000000
0.058211188 0.015686000 0.000000000
0.079902062 0.022793781 0.000000000
0.106862875 0.026593094 0.000000000
0.152206094 0.038112969 0.000000000
0.191053688 0.051838219 0.000000000
0.245955813 0.072059063 0.000000000
0.301103000 0.094117625 0.000000000
0.358945625 0.121200688 0.000000000
0.409313875 0.144485562 0.000000000
0.469485188 0.167524375 0.000000000
0.533578437 0.190808688 0.000000000
0.595220937 0.215931094 0.000000000
0.658823500 0.237009906 0.000000000
0.722549094 0.258333313 0.000000000
0.782597844 0.273896781 0.000000000
0.833088063 0.290931562 0.001593313
0.874020000 0.308700594 0.032352750
0.909803687 0.321568656 0.072181594
0.939460500 0.338357750 0.086397531
0.968014906 0.346078500 0.078676125
0.988235500 0.353798969 0.068749813
1.000000000 0.372058531 0.087622531
1.000000000 0.398161406 0.120833219
1.000000000 0.420588375 0.152083594
1.000000000 0.439583563 0.190808563
1.000000000 0.455147125 0.230024531
1.000000000 0.466912063 0.275000187
1.000000000 0.470465469 0.294240531
1.000000000 0.501838438 0.333333000
0.047059000 0.015440937 0.000000000
0.035048906 0.015440937 0.000000000
0.042891938 0.019362875 0.000000000
0.050612406 0.019362875 0.000000000
0.061764625 0.023038875 0.000000000
0.087499937 0.033823406 0.000000000
0.118382625 0.038235563 0.000000000
0.156249688 0.052696156 0.000000000
0.198774875 0.067156750 0.000000000
0.254779344 0.083578687 0.000000000
0.311519875 0.109558563 0.000000000
0.366789594 0.132965719 0.000000000
0.416911750 0.155882250 0.000000000
0.479534688 0.181372375 0.000000000
0.538970625 0.200490187 0.000000000
0.599141937 0.227451000 0.000000000
0.660784000 0.246813438 0.000000000
0.728186031 0.268014781 0.000000000
0.782842938 0.285539188 0.000000000
0.833088063 0.302328344 0.000000000
0.874020000 0.318627563 0.030147187
0.907353063 0.333210750 0.074387156
0.938480313 0.346078500 0.081372500
0.968014906 0.354901781 0.073652000
0.988235500 0.364215812 0.066421437
1.000000000 0.379902312 0.076470500
1.000000000 0.405882625 0.113725563
1.000000000 0.425367281 0.145955469
1.000000000 0.444117375 0.190195875
1.000000000 0.459314156 0.226347656
1.000000000 0.477940812 0.271323312
1.000000000 0.478185938 0.290318562
1.000000000 0.513234813 0.329412000
0.054902000 0.019240313 0.000000000
0.035171469 0.023161406 0.000000000
0.042891938 0.030637625 0.000000000
0.054534313 0.031005312 0.000000000
0.072671781 0.037500250 0.000000000
0.098774687 0.045710906 0.000000000
0.133578500 0.060171469 0.000000000
0.174999875 0.071691375 0.000000000
0.219485281 0.084191531 0.000000000
0.269975125 0.101470406 0.000000000
0.321323594 0.125000156 0.000000000
0.380637250 0.145588344 0.000000000
0.428186594 0.170956156 0.000000000
0.488480438 0.194485188 0.000000000
0.546201031 0.217279281 0.000000000
0.606617344 0.240808875 0.000000000
0.670220812 0.260416813 0.000000000
0.730514656 0.279657156 0.000000000
0.782352687 0.299019594 0.000000000
0.836641969 0.313848250 0.001593313
0.876103031 0.330147094 0.033333250
0.907353063 0.343504781 0.070710875
0.938235187 0.353799031 0.077573375
0.968014906 0.365073500 0.065931531
0.991176250 0.370220406 0.056863000
1.000000000 0.387377625 0.068627469
1.000000000 0.413603062 0.103186156
1.000000000 0.436151875 0.145220250
1.000000000 0.451592906 0.182843000
1.000000000 0.467034594 0.225734938
1.000000000 0.485907313 0.271078188
1.000000000 0.485907312 0.286397531
1.000000000 0.517279312 0.325490000
0.024510000 0.034313625 0.003431750
0.028308844 0.037622812 0.003431750
0.032353375 0.049019250 0.006862625
0.049999687 0.059926406 0.006862625
0.087254875 0.063725750 0.000000000
0.120465500 0.068137000 0.000000000
0.155146750 0.082843500 0.000000000
0.203431531 0.098284469 0.000000000
0.246568750 0.110293750 0.000000000
0.293995250 0.125735531 0.000000000
0.340931625 0.147303688 0.000000000
0.402083500 0.163602750 0.000000000
0.448529625 0.186764750 0.000000000
0.506862969 0.209926375 0.000000000
0.562990563 0.234314063 0.000000000
0.622549156 0.257597969 0.000000000
0.680882375 0.275490125 0.000000000
0.740318781 0.294730469 0.000000000
0.794853188 0.312254937 0.000000000
0.841789125 0.327205594 0.012990406
0.879411875 0.341176250 0.049510000
0.910294031 0.354166406 0.076715625
0.940686250 0.364460687 0.079411875
0.969362625 0.374510125 0.069485313
0.989215375 0.380392000 0.058823750
1.000000000 0.397058656 0.059191125
1.000000000 0.419117813 0.100980500
1.000000000 0.441911469 0.143137188
1.000000000 0.457843500 0.179411625
1.000000000 0.477205625 0.227328500
1.000000000 0.492892438 0.269852812
1.000000000 0.497058625 0.293750281
1.000000000 0.525000250 0.325980625
0.069975344 0.053063719 0.007843000
0.031618000 0.053431437 0.011152187
0.035294000 0.061642094 0.014828219
0.032230781 0.080392250 0.022548656
0.068994906 0.091666906 0.015318375
0.119730719 0.098897250 0.000000000
0.167524500 0.107230500 0.000000000
0.213603094 0.121568531 0.000000000
0.260539531 0.139705812 0.000000000
0.310416656 0.159436406 0.000000000
0.366054281 0.175490125 0.000000000
0.420833625 0.190931031 0.000000000
0.463848125 0.215808469 0.000000000
0.517034563 0.233578687 0.000000000
0.574387062 0.253554125 0.000000000
0.632965875 0.274387375 0.000000000
0.694852531 0.294240219 0.000000000
0.752818187 0.313725313 0.000000000
0.805146906 0.327695844 0.000000000
0.846568937 0.343137156 0.020833375
0.883700969 0.357107906 0.059558781
0.914583250 0.366176562 0.082353000
0.943382500 0.376470688 0.073897031
0.970833125 0.384803969 0.060049469
0.985906813 0.391911781 0.045343219
1.000000000 0.409803937 0.062622844
1.000000000 0.432353125 0.098406969
1.000000000 0.452205625 0.141544062
1.000000000 0.470955719 0.189583219
1.000000000 0.486397469 0.223039312
1.000000000 0.501348187 0.268014906
1.000000000 0.505269344 0.294240531
1.000000000 0.536642188 0.326102813
0.077695813 0.072304063 0.018872625
0.031005344 0.068872344 0.021935906
0.028431437 0.076715375 0.025980437
0.027451000 0.095833156 0.033455750
0.049999750 0.122058625 0.040441000
0.103186062 0.132965687 0.033333250
0.172794500 0.140686312 0.000000000
0.227083156 0.153063937 0.000000000
0.275000000 0.170588625 0.000000000
0.328063844 0.190931031 0.000000000
0.388725375 0.212990313 0.000000000
0.443995156 0.228921469 0.000000000
0.490196125 0.247549000 0.000000000
0.542769719 0.266053969 0.000000000
0.599999687 0.283823563 0.000000000
0.651593406 0.299264469 0.000000000
0.712254938 0.318627375 0.000000000
0.766421656 0.332965687 0.000000000
0.810293938 0.346323375 0.000000000
0.850367563 0.361764469 0.026103187
0.887499875 0.372549187 0.066421687
0.918872469 0.382108063 0.074632375
0.948039188 0.391176375 0.062990250
0.968750094 0.398529437 0.052083156
0.990441062 0.404166875 0.032598250
1.000000000 0.420711031 0.050490125
1.000000000 0.443872375 0.094607687
1.000000000 0.463848094 0.142156875
1.000000000 0.478676312 0.179902312
1.000000000 0.497671500 0.218627219
1.000000000 0.508333438 0.263725375
1.000000000 0.512254437 0.290318562
1.000000000 0.544362625 0.322304188
0.085417063 0.095465625 0.029657125
0.030147406 0.088235250 0.033455781
0.034436281 0.099142344 0.041176281
0.027451000 0.111274063 0.048896750
0.048161531 0.141421594 0.056618000
0.080392250 0.171568937 0.067401812
0.141299063 0.184681531 0.067647250
0.231004750 0.195343500 0.003064062
0.289460594 0.212500063 0.000000000
0.343504750 0.231862969 0.000000000
0.398406844 0.250858187 0.000000000
0.461519750 0.270955594 0.000000000
0.514950969 0.289338250 0.000000000
0.565931250 0.305391813 0.000000000
0.621568531 0.318627375 0.000000000
0.676838313 0.331127312 0.000000000
0.730759906 0.346691250 0.000000000
0.776102594 0.359191125 0.000000000
0.818627844 0.370833562 0.005147187
0.862009812 0.382475375 0.040686156
0.891299313 0.391053781 0.067279438
0.921323188 0.400980375 0.064828687
0.948774562 0.407352969 0.054166719
0.971935906 0.413970344 0.036519688
0.993259812 0.418872594 0.016666750
1.000000000 0.436151937 0.049141906
1.000000000 0.456250000 0.092279594
1.000000000 0.474877531 0.141176469
1.000000000 0.489460719 0.171935937
1.000000000 0.505759562 0.219117469
1.000000000 0.516789063 0.260662094
1.000000000 0.517769562 0.287255250
1.000000000 0.552083281 0.321569000
0.047059250 0.116666500 0.050980500
0.034926344 0.117402156 0.055637656
0.044362875 0.124264875 0.062745250
0.053554313 0.136151531 0.070833469
0.064705625 0.165686250 0.081373000
0.083210750 0.203799250 0.093872375
0.126715375 0.231617875 0.105637375
0.195711125 0.245588219 0.094240156
0.298039000 0.267646750 0.016666750
0.360171281 0.276225875 0.000245094
0.417892563 0.299264688 0.000000000
0.476838219 0.318872719 0.000000000
0.534313875 0.334313625 0.000000000
0.594117719 0.352083469 0.000000000
0.647549062 0.365196250 0.000000000
0.702818844 0.376715594 0.000000000
0.748039250 0.387254750 0.000000000
0.790564000 0.398897219 0.019117781
0.826960687 0.406617687 0.046813500
0.866176187 0.412745250 0.073774719
0.899509875 0.416176375 0.082843250
0.926592969 0.425490500 0.073774625
0.949755000 0.430637375 0.058333563
0.973897156 0.434436281 0.044485500
0.994117500 0.440195750 0.030392250
1.000000000 0.456617656 0.054044156
1.000000000 0.473039000 0.103676250
1.000000000 0.488480719 0.142646937
1.000000000 0.504902125 0.180882250
1.000000000 0.520955687 0.227696344
1.000000000 0.529411500 0.270343312
1.000000000 0.534313750 0.293260031
1.000000000 0.558823250 0.315686500
0.130024375 0.163112531 0.079044094
0.061397094 0.149509562 0.082966094
0.065563938 0.155269250 0.089706031
0.071936469 0.166298969 0.097916813
0.070588000 0.193627437 0.106617781
0.076592875 0.228431375 0.116544375
0.102940969 0.263235188 0.128553625
0.159681469 0.293627531 0.140686313
0.250612969 0.312255281 0.139951000
0.349142406 0.337990500 0.076348281
0.425612781 0.350489938 0.019362438
0.486396875 0.367157094 0.006617531
0.547916437 0.382598063 0.000000000
0.603431250 0.398039250 0.000000000
0.656862750 0.411274594 0.000000000
0.712254938 0.422181656 0.000000000
0.764706000 0.430637469 0.014583437
0.806004906 0.435539219 0.055637281
0.843872781 0.441544250 0.083578469
0.875858063 0.442647313 0.089706156
0.906740188 0.449509812 0.085907031
0.930882063 0.451593094 0.068995031
0.958210875 0.455515094 0.060048969
0.977573781 0.459436094 0.033578562
0.997058500 0.462499906 0.018137187
1.000000000 0.477941031 0.064215812
1.000000000 0.493382719 0.118504563
1.000000000 0.508210812 0.152083594
1.000000000 0.517524312 0.190686000
1.000000000 0.532965500 0.231127594
1.000000000 0.542892156 0.275000187
1.000000000 0.546813875 0.293137469
1.000000000 0.571445937 0.317647000
0.153186437 0.204411875 0.108823125
0.075734969 0.189828250 0.109926188
0.079902063 0.189950813 0.113970437
0.080759781 0.200980219 0.120588125
0.083333625 0.221078500 0.128676250
0.087745062 0.252083687 0.139583313
0.095833250 0.293872750 0.151715875
0.127573344 0.331004844 0.165931469
0.202206125 0.357352687 0.179902063
0.306740000 0.381617813 0.180024344
0.409803937 0.408578625 0.123529250
0.496446063 0.418750000 0.077819094
0.550735000 0.435539438 0.065931125
0.608456031 0.448652250 0.060784438
0.665931063 0.458823625 0.053431625
0.721690969 0.466544063 0.051102812
0.768627500 0.476961187 0.068137312
0.810416875 0.480147500 0.085049219
0.847794500 0.480147500 0.088480562
0.880882437 0.480147500 0.081985313
0.911764625 0.477451125 0.072794188
0.936151906 0.478676437 0.058578563
0.960539250 0.478676437 0.041911688
0.982597844 0.478676437 0.007720813
1.000000000 0.481862813 0.014215563
1.000000000 0.494608031 0.070833469
1.000000000 0.508823625 0.115441000
1.000000000 0.523651875 0.155391938
1.000000000 0.531862437 0.191911625
1.000000000 0.546936344 0.233211156
1.000000000 0.555637375 0.274019687
1.000000000 0.555637375 0.291544187
1.000000000 0.577941062 0.311029312
0.176347781 0.242891906 0.131862937
0.089828688 0.227083344 0.135661406
0.095097906 0.232230625 0.140808719
0.098897281 0.237377250 0.144608094
0.101838125 0.254534250 0.157475500
0.103798781 0.282353000 0.167279312
0.099877625 0.320956094 0.178186406
0.125122750 0.357230469 0.190318469
0.163234906 0.398529437 0.205760031
0.255024937 0.425000062 0.221200937
0.364705844 0.447181562 0.220098000
0.470220688 0.475490531 0.167156937
0.553921688 0.480759719 0.130759844
0.608456031 0.490686344 0.125490031
0.663848031 0.497426313 0.114705875
0.717034469 0.508578531 0.115563594
0.764093344 0.512867750 0.124632250
0.806617438 0.516176594 0.114583094
0.845220687 0.517034312 0.100980625
0.880882437 0.512254937 0.081617719
0.911764625 0.512254937 0.065931719
0.939951031 0.506985094 0.038970562
0.961764875 0.504534156 0.012132312
0.982597844 0.501838125 0.004779656
0.998406687 0.505392188 0.027941187
1.000000000 0.517034312 0.078676375
1.000000000 0.526102969 0.119730531
1.000000000 0.539092781 0.159313938
1.000000000 0.546813750 0.193259812
1.000000000 0.556250094 0.230024531
1.000000000 0.567034094 0.272671500
1.000000000 0.566053531 0.288848156
1.000000000 0.590808812 0.305882000
0.130882625 0.278431000 0.165196000
0.104289063 0.273407063 0.166544187
0.113235125 0.277206188 0.172793937
0.120342844 0.284926656 0.181617469
0.129411750 0.296078250 0.192156875
0.134803875 0.322058687 0.203186531
0.133333312 0.353676500 0.211519625
0.140073281 0.389828500 0.215931094
0.168627250 0.421568875 0.228921375
0.222549156 0.458455719 0.246813906
0.317157187 0.484314062 0.262254812
0.426348250 0.508823937 0.257107969
0.527450875 0.533333125 0.205882375
0.609190812 0.537255125 0.169853094
0.664950812 0.541176500 0.178186187
0.718994969 0.548651906 0.173039125
0.759803875 0.552941125 0.165686500
0.803798875 0.556249844 0.156004562
0.840686250 0.556862500 0.145343000
0.874019719 0.551347812 0.134558906
0.902450875 0.549509625 0.111274750
0.927940938 0.545220687 0.079166719
0.955147188 0.537500250 0.055147188
0.975735344 0.536274625 0.055269719
0.994117375 0.533333125 0.059313750
1.000000000 0.536519531 0.090318875
1.000000000 0.547304062 0.130882375
1.000000000 0.557475313 0.170097844
1.000000000 0.564706125 0.204902250
1.000000000 0.576225531 0.247426531
1.000000000 0.584804000 0.285784438
1.000000000 0.586274750 0.302573531
1.000000000 0.601470875 0.316666625
0.214828469 0.340196125 0.203799250
0.128308750 0.324509719 0.207597719
0.132475469 0.328431125 0.211397125
0.138725563 0.334803969 0.221446344
0.146568562 0.346323562 0.233088094
0.151470656 0.365073656 0.240073750
0.152083469 0.389828313 0.250122875
0.144362812 0.421568844 0.257107937
0.160784500 0.452451063 0.259313906
0.195465625 0.481495031 0.265195938
0.265808719 0.511519906 0.283333219
0.371323562 0.538603281 0.306004719
0.476961250 0.564338469 0.295098344
0.579411719 0.586519344 0.250122469
0.664338094 0.590441344 0.217646781
0.714460781 0.592034250 0.216421781
0.758823500 0.592034250 0.208946375
0.801348250 0.593627563 0.200122844
0.839951062 0.594240375 0.182965906
0.873039438 0.589705562 0.170097750
0.902450875 0.585784562 0.149877719
0.926593125 0.578921406 0.139706063
0.949142250 0.575122625 0.128063625
0.968504750 0.571323469 0.122181031
0.987867656 0.567769469 0.133578344
1.000000000 0.567769469 0.155391844
1.000000000 0.574754938 0.177818406
1.000000000 0.583455875 0.208823594
1.000000000 0.589460906 0.232475219
1.000000000 0.598774375 0.268137562
1.000000000 0.604656781 0.296936281
1.000000000 0.604656781 0.314460781
1.000000000 0.621936094 0.325490000
0.235784688 0.393627625 0.246323500
0.151470719 0.376225188 0.247916813
0.153186563 0.380147187 0.253921438
0.163112563 0.387622500 0.259926375
0.173039125 0.397549188 0.273284688
0.178554000 0.411396781 0.283210969
0.183578500 0.435539375 0.294852687
0.181372375 0.459436125 0.302573344
0.174019437 0.486519500 0.296323438
0.198407250 0.510294250 0.297916594
0.236764562 0.537745313 0.306127312
0.320955687 0.565564062 0.323284313
0.423039625 0.588725500 0.340441500
0.530759344 0.613602719 0.327450937
0.627206188 0.626715500 0.276715562
0.705636906 0.630637500 0.232352875
0.754902000 0.626470875 0.236274375
0.795220687 0.624509937 0.230392406
0.833823375 0.622794062 0.211519625
0.865318562 0.618995063 0.197671594
0.891666563 0.616666375 0.186029562
0.917279531 0.611397187 0.176960469
0.940440875 0.607598063 0.170098063
0.959681219 0.600980375 0.171813500
0.978921562 0.596078438 0.171813500
0.995588094 0.592279438 0.185661844
1.000000000 0.597304063 0.209558938
1.000000000 0.603308625 0.231985094
1.000000000 0.611029500 0.253431438
1.000000000 0.614338250 0.279656969
1.000000000 0.619852625 0.306862875
1.000000000 0.616176687 0.319853125
1.000000000 0.629657125 0.323284438
0.247303594 0.442034344 0.293014344
0.174754625 0.430146812 0.296813781
0.180392469 0.433946219 0.302450719
0.184558594 0.439583094 0.308701344
0.190073375 0.447549125 0.319484969
0.205637344 0.461642188 0.334681281
0.217524562 0.480882562 0.342892281
0.218259750 0.504044188 0.348896844
0.216544094 0.524264562 0.346813812
0.209803750 0.542279281 0.337009813
0.237009500 0.564215844 0.336519563
0.277573500 0.590441281 0.338725563
0.368382719 0.613602750 0.360539094
0.469239844 0.634681062 0.370465969
0.574877469 0.653798844 0.348406750
0.667401781 0.667157187 0.288358031
0.744485250 0.663357750 0.251593250
0.785661781 0.655637313 0.245465625
0.820097906 0.649754844 0.237990312
0.853676500 0.647303594 0.230269406
0.880759844 0.645465625 0.221568937
0.907842844 0.641544156 0.217646937
0.929779375 0.634558875 0.212255187
0.948161781 0.630759656 0.212499781
0.968504719 0.623039219 0.212499781
0.987009688 0.619240250 0.218259750
0.998651813 0.616176188 0.230514531
1.000000000 0.620465406 0.250612625
1.000000000 0.623774594 0.268382219
1.000000000 0.626593437 0.293382437
1.000000000 0.635539594 0.318137187
1.000000000 0.633701156 0.329656594
1.000000000 0.643382594 0.327573562
0.227451000 0.494117500 0.343137500
0.200000000 0.490318562 0.347059000
0.209558437 0.494117500 0.354656875
0.219240313 0.501593312 0.360416813
0.230882250 0.509313875 0.372058750
0.244485344 0.520955687 0.385049031
0.260048813 0.535049062 0.399264625
0.269730281 0.550367406 0.403921500
0.275490500 0.568627750 0.402941250
0.264093125 0.586029375 0.399142063
0.254412062 0.601470562 0.381617312
0.277573594 0.615563781 0.375857687
0.317156625 0.636764625 0.374019625
0.414950563 0.658333156 0.393259969
0.517156875 0.682598062 0.399264750
0.615318625 0.692279062 0.367647125
0.701960500 0.698039500 0.303921500
0.769730656 0.694240063 0.265195719
0.808578500 0.682843188 0.262499938
0.840073531 0.674877594 0.268259812
0.867156875 0.671078750 0.270588000
0.892279719 0.665318656 0.263970469
0.914215750 0.661519375 0.251715687
0.933578344 0.655759719 0.253799219
0.952941250 0.651961000 0.250980500
0.972303656 0.644240562 0.249877219
0.987009875 0.643137500 0.257598375
0.998039000 0.639828312 0.271813969
1.000000000 0.641176500 0.289215875
1.000000000 0.647426594 0.314828469
1.000000000 0.652941000 0.341421562
1.000000000 0.650980500 0.349142063
1.000000000 0.658823500 0.352941000
0.280024844 0.548284219 0.397181656
0.236519687 0.551838063 0.400980125
0.242401750 0.555882094 0.408700594
0.250122687 0.559681531 0.416421969
0.259681125 0.563480563 0.425735312
0.274632781 0.572671781 0.437254750
0.290808875 0.584191031 0.447426469
0.301225219 0.599632594 0.456372563
0.308945906 0.613235063 0.458088219
0.308088437 0.627573656 0.454166687
0.299877250 0.637500187 0.441911656
0.281249813 0.649877812 0.420220875
0.302451000 0.659926500 0.408823562
0.362499719 0.675490313 0.412255188
0.456740031 0.696446125 0.423652000
0.550122688 0.717401875 0.420465594
0.653921875 0.723284406 0.383210563
0.732842812 0.727083375 0.329166406
0.796691438 0.719484938 0.297916469
0.830392094 0.711396844 0.303063719
0.861029750 0.702450688 0.309313813
0.883210938 0.696200969 0.311642375
0.905882156 0.691789375 0.309068687
0.923039469 0.686764781 0.306127188
0.945220563 0.682107875 0.300490313
0.962745250 0.675244906 0.297548812
0.980024594 0.671446187 0.301470813
0.994852687 0.667647031 0.310539281
1.000000000 0.666421406 0.324142219
1.000000000 0.670711000 0.345955750
1.000000000 0.674019344 0.368872125
1.000000000 0.670343406 0.376225406
1.000000000 0.678186406 0.374141844
0.297549312 0.592892500 0.445588375
0.265564062 0.598529375 0.449509938
0.269607625 0.600244812 0.455146812
0.280637344 0.606004781 0.460906781
0.292157125 0.610293938 0.470833375
0.306004844 0.615808844 0.480147156
0.324754938 0.625000063 0.491666875
0.339338344 0.635171563 0.498774500
0.347793750 0.648039312 0.502696062
0.357597781 0.661764625 0.504411938
0.358578250 0.672304000 0.496323500
0.349264813 0.682230344 0.481862531
0.331127562 0.687744875 0.459558688
0.341054250 0.692769781 0.437744937
0.410048750 0.705882000 0.438725313
0.491421281 0.721691031 0.440808875
0.588725500 0.738970375 0.426225500
0.678799094 0.746323187 0.392402281
0.756372312 0.744607750 0.350245187
0.816666563 0.738602750 0.330147063
0.845587937 0.729411500 0.336764312
0.871200906 0.721446000 0.342034500
0.894853062 0.714951188 0.345343250
0.913602594 0.711029188 0.348039062
0.933578312 0.707107750 0.341911500
0.949019781 0.702328250 0.334926437
0.966666250 0.696323438 0.333333125
0.981005094 0.691421750 0.339705656
0.994852687 0.687500187 0.350734875
1.000000000 0.687500187 0.366666469
1.000000000 0.689706313 0.381862875
1.000000000 0.689706312 0.393259625
1.000000000 0.697549312 0.393382187
0.321690750 0.635416750 0.488725437
0.300367875 0.641543906 0.494117781
0.306004750 0.643259750 0.498161750
0.315073469 0.645588438 0.501715656
0.325367625 0.650612625 0.509436500
0.340809062 0.655024750 0.517156938
0.357842875 0.660539063 0.524877375
0.377205781 0.668259719 0.534191125
0.388112625 0.675000094 0.537377750
0.399019687 0.689338531 0.538603063
0.403921500 0.704289187 0.542401812
0.402083000 0.713235344 0.534803937
0.389828500 0.713112781 0.510539188
0.376592750 0.717769344 0.484926594
0.388480594 0.719117344 0.466299063
0.447671500 0.730759781 0.456005063
0.522549125 0.744730312 0.455759531
0.619485312 0.758210719 0.441421781
0.707965594 0.763970219 0.410293937
0.778063906 0.762377312 0.373406531
0.829901937 0.756249781 0.355514969
0.855760000 0.749510187 0.358088469
0.881617719 0.736886906 0.377328531
0.899264469 0.733088344 0.377328531
0.920343375 0.726348125 0.374999844
0.938970250 0.721568594 0.371078437
0.952818656 0.717769344 0.367156844
0.970588250 0.712990219 0.367769500
0.985539031 0.709068219 0.372303750
0.995220375 0.705147219 0.387867812
1.000000000 0.705147219 0.396813312
1.000000000 0.709068219 0.414951219
1.000000000 0.712990219 0.412622531
0.339215750 0.671568750 0.523529250
0.330269812 0.674020000 0.528921625
0.343136937 0.677941000 0.532843000
0.354044031 0.681863000 0.536765000
