luts/SuperNegx33.cube
TITLE "SuperNegative"
#LUMIXPHOTOSTYLE STD
DOMAIN_MIN 0 0 0
DOMAIN_MAX 1 1 1
LUT_3D_SIZE 5
0.015686000 0.007843000 0.000000000
0.190195750 0.042156750 0.000000000
0.658823500 0.227451000 0.000000000
0.988235500 0.346078500 0.076470250
1.000000000 0.494118000 0.333333000
0.047059250 0.116666500 0.050980500
0.298039000 0.267646750 0.016666750
0.748039250 0.387254750 0.000000000
0.994117500 0.440195750 0.030392250
1.000000000 0.558823250 0.315686500
0.227451000 0.494117500 0.343137500
0.275490500 0.568627750 0.402941250
0.701960500 0.698039500 0.303921500
0.952941250 0.651961000 0.250980500
1.000000000 0.658823500 0.352941000
0.470588000 0.767647250 0.618627250
0.533333500 0.777451250 0.648039250
0.554901750 0.802941250 0.634313500
0.835294500 0.815686500 0.490196000
0.970588250 0.775490250 0.492156750
0.572549000 0.890196000 0.737255000
0.674510000 0.901961000 0.768627000
0.666667000 0.890196000 0.752941000
0.637254750 0.894118000 0.736274500
0.894118000 0.894118000 0.623529000
0.015686000 0.007843000 0.079411750
0.293137500 0.140196000 0.189215250
0.712745000 0.238235250 0.107843000
0.988235500 0.336274500 0.176470500
1.000000000 0.454902000 0.398039250
0.085294000 0.204901750 0.127451250
0.398039500 0.359804000 0.211764500
0.816666750 0.360784000 0.019608000
1.000000000 0.423529500 0.150980250
1.000000000 0.524510000 0.372549250
0.222548750 0.562745250 0.428431500
0.283333250 0.607843250 0.509804000
0.730392000 0.710784250 0.335294000
0.966666750 0.638235000 0.296078500
1.000000000 0.649019500 0.408823500
0.414705750 0.787255000 0.655882250
0.484313750 0.798039000 0.684313750
0.607843250 0.809803750 0.689215750
0.839215500 0.818627250 0.539215500
0.968627250 0.782352750 0.542156750
0.522549250 0.894118000 0.756863000
0.640196250 0.909804000 0.784314000
0.661764750 0.894118000 0.778431500
0.659804250 0.903921250 0.766666250
0.894118000 0.901961000 0.658824000
0.154902000 0.156863000 0.456863000
0.388235000 0.212745250 0.667646750
0.860784500 0.380392000 0.752941500
0.958823250 0.470588500 0.617647250
1.000000000 0.476470500 0.578431000
0.168627750 0.309804000 0.459804000
0.329411750 0.362745250 0.603921750
0.832352750 0.519608000 0.738235250
0.976470500 0.478431500 0.563725250
1.000000000 0.515686250 0.545098250
0.194118000 0.666666500 0.539215500
0.291176250 0.714705750 0.594117750
0.752941000 0.729411500 0.660784000
0.969607750 0.602941250 0.459804000
1.000000000 0.596078500 0.452941500
0.374509750 0.810784250 0.690196500
0.440196250 0.819607750 0.717647000
0.646078250 0.811764750 0.741176500
0.843137500 0.818627250 0.591176750
0.961764750 0.782352750 0.568627250
0.425490000 0.903921500 0.768627000
0.590195750 0.913725000 0.777451250
0.629412000 0.909804000 0.788235000
0.721568500 0.898039000 0.792157000
0.905882000 0.898039000 0.682353000
0.325490500 0.348039250 0.771568250
0.473529500 0.355882250 0.832353250
0.774509750 0.458823500 0.871568500
0.961764500 0.530392250 0.860784750
0.991176500 0.580392000 0.775490250
0.347058500 0.471568500 0.751961000
0.465686250 0.485294000 0.792157000
0.745098000 0.550000000 0.848039250
0.951960750 0.607843250 0.850980250
0.976471000 0.627451000 0.761764750
0.431372750 0.650980500 0.745098250
0.489215500 0.654902000 0.747058750
0.705882250 0.704902000 0.799019750
0.900000250 0.718627250 0.820588250
0.954901750 0.679411750 0.738235250
0.354901500 0.821568750 0.750980750
0.392157000 0.834314000 0.752941500
0.597059000 0.838235250 0.772548750
0.835294500 0.819607750 0.766666750
0.948039500 0.759804000 0.697059000
0.335294250 0.913725000 0.788235000
0.498039250 0.909804000 0.789215500
0.584313750 0.913725000 0.807843000
0.770588000 0.898039000 0.824509500
0.908823500 0.894118000 0.764706000
0.505882000 0.505882000 0.874510000
0.579411750 0.500980500 0.897058750
0.703921500 0.503921500 0.915686000
0.903921750 0.542156500 0.921569000
0.964706000 0.607843000 0.913725000
0.519607500 0.584313500 0.858824000
0.574509750 0.583333000 0.876470250
0.699019500 0.587255000 0.900980500
0.887255000 0.608823500 0.912744750
0.955882500 0.649019250 0.900980500
0.523529500 0.682353000 0.833333500
0.570588250 0.680392500 0.844117500
0.674510000 0.690196000 0.866666500
0.861764750 0.710784250 0.899019750
0.952941500 0.721568500 0.896078500
0.523529250 0.786274750 0.844117500
0.571568500 0.788235500 0.845097750
0.667647000 0.795098250 0.848039250
0.816667000 0.811764500 0.864705750
0.939215750 0.817646750 0.883333500
0.443137000 0.886275000 0.854902000
0.477450750 0.889215750 0.850980000
0.543137000 0.901961000 0.858824000
0.705882500 0.901961000 0.866667000
0.905882000 0.890196000 0.874510000
