cube-lut-app/app/src/main/assets/luts/MonoSandx33.cube
TITLE "MonoSand"
#LUMIXPHOTOSTYLE STD
DOMAIN_MIN 0 0 0
DOMAIN_MAX 1 1 1
LUT_3D_SIZE 5
0.090800000 0.089700000 0.089800000
0.129950000 0.128150000 0.127800000
0.357200000 0.353800000 0.340300000
0.473350000 0.469850000 0.444700000
0.518500000 0.517100000 0.488200000
0.100800000 0.100000000 0.099850000
0.219300000 0.217300000 0.214550000
0.419350000 0.416800000 0.397350000
0.483600000 0.481750000 0.456000000
0.523050000 0.522450000 0.492750000
0.232900000 0.229600000 0.226300000
0.271700000 0.270900000 0.265600000
0.480400000 0.477900000 0.452700000
0.587650000 0.587350000 0.552000000
0.585700000 0.585300000 0.550300000
0.408800000 0.406500000 0.388100000
0.431100000 0.428400000 0.407700000
0.458000000 0.456100000 0.432200000
0.625750000 0.624050000 0.585800000
0.676000000 0.674300000 0.634100000
0.533400000 0.530800000 0.499500000
0.544050000 0.540450000 0.508600000
0.559800000 0.558800000 0.525500000
0.608950000 0.607250000 0.570250000
0.711500000 0.710100000 0.669300000
0.103450000 0.102250000 0.102050000
0.195750000 0.193950000 0.191850000
0.364250000 0.360950000 0.347200000
0.466050000 0.462900000 0.438200000
0.517050000 0.514800000 0.485850000
0.114800000 0.113350000 0.112900000
0.298150000 0.296250000 0.288000000
0.434500000 0.430750000 0.409600000
0.491700000 0.490400000 0.463550000
0.526650000 0.525350000 0.494950000
0.255100000 0.251900000 0.246800000
0.301400000 0.299450000 0.291550000
0.487250000 0.486750000 0.460750000
0.585400000 0.584850000 0.549900000
0.575150000 0.571900000 0.537150000
0.416200000 0.413600000 0.394400000
0.438000000 0.435950000 0.414550000
0.461000000 0.458700000 0.434600000
0.627300000 0.625600000 0.587350000
0.676150000 0.674500000 0.634350000
0.537550000 0.534300000 0.502700000
0.547400000 0.544100000 0.512250000
0.564350000 0.562450000 0.528450000
0.611500000 0.610050000 0.572750000
0.714000000 0.712150000 0.671350000
0.222300000 0.219800000 0.216400000
0.338550000 0.337400000 0.326500000
0.479500000 0.476700000 0.451500000
0.536500000 0.533400000 0.501850000
0.541900000 0.538300000 0.506500000
0.220100000 0.218050000 0.214700000
0.334100000 0.332000000 0.320850000
0.501100000 0.498200000 0.469750000
0.539650000 0.536200000 0.504500000
0.539550000 0.536100000 0.504350000
0.322500000 0.319200000 0.308800000
0.381250000 0.379000000 0.363650000
0.572100000 0.569000000 0.534400000
0.533750000 0.531150000 0.499800000
0.539900000 0.536400000 0.504600000
0.434600000 0.431400000 0.410300000
0.457200000 0.455100000 0.431700000
0.497850000 0.495400000 0.467350000
0.644650000 0.643500000 0.604550000
0.671350000 0.670050000 0.630150000
0.548000000 0.544700000 0.512800000
0.555400000 0.555200000 0.522850000
0.579000000 0.575800000 0.541100000
0.618650000 0.617500000 0.579750000
0.718100000 0.715900000 0.675200000
0.381200000 0.379650000 0.364350000
0.419600000 0.418050000 0.398600000
0.489300000 0.488450000 0.461950000
0.600450000 0.598150000 0.561300000
0.623600000 0.621900000 0.583600000
0.384450000 0.382700000 0.367050000
0.415200000 0.413050000 0.394000000
0.484950000 0.484050000 0.458550000
0.608600000 0.606950000 0.569900000
0.626000000 0.624100000 0.585750000
0.411650000 0.409950000 0.391450000
0.436900000 0.433700000 0.412500000
0.485750000 0.485500000 0.459900000
0.617850000 0.617050000 0.579250000
0.624850000 0.623150000 0.585000000
0.490050000 0.487650000 0.461000000
0.508350000 0.506050000 0.477400000
0.577100000 0.573900000 0.539150000
0.697250000 0.695950000 0.655500000
0.628350000 0.627900000 0.589900000
0.561300000 0.560000000 0.526450000
0.571750000 0.568750000 0.534200000
0.599150000 0.596750000 0.559900000
0.640250000 0.638500000 0.599750000
0.743950000 0.742600000 0.703150000
0.453400000 0.452400000 0.429200000
0.461100000 0.458550000 0.434250000
0.484600000 0.484500000 0.459300000
0.600300000 0.598200000 0.561550000
0.654300000 0.651900000 0.612400000
0.464200000 0.461150000 0.436500000
0.469500000 0.465900000 0.440900000
0.481950000 0.480250000 0.455150000
0.599950000 0.598050000 0.561350000
0.657300000 0.655200000 0.615950000
0.496700000 0.494500000 0.466500000
0.505700000 0.502150000 0.473400000
0.507700000 0.504000000 0.475100000
0.584600000 0.582150000 0.546550000
0.666700000 0.665600000 0.625700000
0.554100000 0.552600000 0.520150000
0.562950000 0.561400000 0.527800000
0.587050000 0.585450000 0.550000000
0.602350000 0.601050000 0.564350000
0.691200000 0.689800000 0.649150000
0.615200000 0.614800000 0.577400000
0.622500000 0.620850000 0.582550000
0.640700000 0.640300000 0.601700000
0.678950000 0.677500000 0.637300000
0.816500000 0.816300000 0.782100000
