cube-lut-app/app/src/main/assets/luts/MonoSandx33.cube
TITLE "MonoSand"
#LUMIXPHOTOSTYLE STD
DOMAIN_MIN 0 0 0
DOMAIN_MAX 1 1 1
LUT_3D_SIZE 33
0.090800000 0.089700000 0.089800000
0.090806250 0.089706250 0.089806250
0.090950000 0.089887500 0.089987500
0.091412500 0.090743750 0.090843750
0.092800000 0.092500000 0.092525000
0.097250000 0.096350000 0.096212500
0.104587500 0.103462500 0.103387500
0.115650000 0.114106250 0.113818750
0.129950000 0.128150000 0.127800000
0.148187500 0.146018750 0.145325000
0.170875000 0.168450000 0.167262500
0.197856250 0.195218750 0.193300000
0.228325000 0.225700000 0.222825000
0.261700000 0.258937500 0.254212500
0.296487500 0.293600000 0.286225000
0.331162500 0.327700000 0.317281250
0.357200000 0.353800000 0.340300000
0.376775000 0.376450000 0.362143750
0.399075000 0.395800000 0.378325000
0.414006250 0.413200000 0.394656250
0.431125000 0.427925000 0.406900000
0.443331250 0.440656250 0.419006250
0.453175000 0.452150000 0.429200000
0.464412500 0.461487500 0.436893750
0.473350000 0.469850000 0.444700000
0.479925000 0.477593750 0.452450000
0.485825000 0.484887500 0.459100000
0.492812500 0.491318750 0.464087500
0.499725000 0.497000000 0.468700000
0.505687500 0.502200000 0.473456250
0.510812500 0.507125000 0.478237500
0.515150000 0.512106250 0.483112500
0.518500000 0.517100000 0.488200000
0.090800000 0.089700000 0.089800000
0.090937500 0.089868750 0.089968750
0.091643750 0.091075000 0.091150000
0.092956250 0.092693750 0.092668750
0.096056250 0.095200000 0.095006250
0.101168750 0.099862500 0.099706250
0.108381250 0.107781250 0.107562500
0.118931250 0.118618750 0.118581250
0.133800000 0.132981250 0.132918750
0.152350000 0.151375000 0.150775000
0.175118750 0.174287500 0.173212500
0.201943750 0.201318750 0.199556250
0.232112500 0.231750000 0.228906250
0.265281250 0.264931250 0.260212500
0.300306250 0.299393750 0.291781250
0.333387500 0.330568750 0.320037500
0.359231250 0.355618750 0.341912500
0.378312500 0.377787500 0.363100000
0.400062500 0.396731250 0.379137500
0.414468750 0.413881250 0.395250000
0.431593750 0.428325000 0.407300000
0.443650000 0.440950000 0.419287500
0.453456250 0.452362500 0.429375000
0.464625000 0.461656250 0.437043750
0.473512500 0.469956250 0.444856250
0.480031250 0.477706250 0.452562500
0.485937500 0.484993750 0.459143750
0.492925000 0.491425000 0.464162500
0.499831250 0.497106250 0.468806250
0.505793750 0.502306250 0.473481250
0.510918750 0.507231250 0.478331250
0.515162500 0.512212500 0.483218750
0.518600000 0.517206250 0.488306250
0.090825000 0.089725000 0.089825000
0.090943750 0.089962500 0.090062500
0.091825000 0.091237500 0.091300000
0.095787500 0.095193750 0.095031250
0.101662500 0.100275000 0.100212500
0.108550000 0.107575000 0.107225000
0.116762500 0.115412500 0.115087500
0.127662500 0.126275000 0.125756250
0.142062500 0.140712500 0.139912500
0.160762500 0.159268750 0.157993750
0.183812500 0.182100000 0.180100000
0.210875000 0.209093750 0.206181250
0.241250000 0.239412500 0.235137500
0.273768750 0.272068750 0.265831250
0.307000000 0.305762500 0.296862500
0.335906250 0.334112500 0.323393750
0.361562500 0.357750000 0.343937500
0.380268750 0.379431250 0.364231250
0.401287500 0.397812500 0.380162500
0.415493750 0.414787500 0.395900000
0.432250000 0.428937500 0.407837500
0.444018750 0.441387500 0.419662500
0.453800000 0.452725000 0.429612500
0.464906250 0.461881250 0.437231250
0.473725000 0.470137500 0.444987500
0.480181250 0.477875000 0.452743750
0.486112500 0.485150000 0.459300000
0.493137500 0.491543750 0.464268750
0.499975000 0.497212500 0.468912500
0.505912500 0.502412500 0.473600000
0.511025000 0.507350000 0.478437500
0.515268750 0.512318750 0.483337500
0.518612500 0.517325000 0.488412500
0.091037500 0.089993750 0.090093750
0.091162500 0.090312500 0.090406250
0.091581250 0.090875000 0.090943750
0.095431250 0.094837500 0.094693750
0.106106250 0.105706250 0.105587500
0.116425000 0.115162500 0.114962500
0.130025000 0.128518750 0.128031250
0.142281250 0.141131250 0.140431250
0.156137500 0.155231250 0.154531250
0.175112500 0.172987500 0.171687500
0.198243750 0.195500000 0.193381250
0.224893750 0.221931250 0.218656250
0.254487500 0.251493750 0.246650000
0.286062500 0.282712500 0.275650000
0.315806250 0.312956250 0.303100000
0.339625000 0.339075000 0.327887500
0.364812500 0.360950000 0.347050000
0.383212500 0.381862500 0.366056250
0.403081250 0.399581250 0.381775000
0.417137500 0.416056250 0.396906250
0.433243750 0.429831250 0.408712500
0.444731250 0.442093750 0.420312500
0.454493750 0.453250000 0.430056250
0.465393750 0.462293750 0.437643750
0.474025000 0.470493750 0.445343750
0.480368750 0.478187500 0.453081250
0.486343750 0.485400000 0.459550000
0.493387500 0.491775000 0.464443750
0.500206250 0.497381250 0.469056250
0.506143750 0.502556250 0.473812500
0.511181250 0.507550000 0.478593750
0.515393750 0.512468750 0.483562500
0.518737500 0.517556250 0.488556250
0.091300000 0.090575000 0.090675000
0.091518750 0.090956250 0.091025000
0.091737500 0.091337500 0.091312500
0.093925000 0.093500000 0.093400000
0.104250000 0.103475000 0.103525000
0.126081250 0.125106250 0.124612500
0.140075000 0.139125000 0.138462500
0.159831250 0.158762500 0.157662500
0.180700000 0.179875000 0.178400000
0.200925000 0.198368750 0.196356250
0.222137500 0.219225000 0.215737500
0.244800000 0.243456250 0.239137500
0.271300000 0.269925000 0.264225000
0.299312500 0.297418750 0.289650000
0.325375000 0.322025000 0.311762500
0.347218750 0.345343750 0.332850000
0.369050000 0.365750000 0.351850000
0.387375000 0.385306250 0.368856250
0.405575000 0.402237500 0.384262500
0.419462500 0.418043750 0.398431250
0.434700000 0.431275000 0.410075000
0.445837500 0.443237500 0.421287500
0.455462500 0.454050000 0.430662500
0.466137500 0.462956250 0.438250000
0.474600000 0.471075000 0.445925000
0.480756250 0.478743750 0.453625000
0.486825000 0.485887500 0.459887500
0.493868750 0.492175000 0.464756250
0.500600000 0.497725000 0.469400000
0.506487500 0.502900000 0.474156250
0.511500000 0.507825000 0.478937500
0.515637500 0.512806250 0.483906250
0.518950000 0.517900000 0.488900000
0.091850000 0.091475000 0.091543750
0.092312500 0.092062500 0.092025000
0.092881250 0.092681250 0.092550000
0.094056250 0.093568750 0.093456250
0.101306250 0.099881250 0.099731250
0.120056250 0.119425000 0.119200000
0.155475000 0.154600000 0.154043750
0.177031250 0.175381250 0.174018750
0.203525000 0.201843750 0.199868750
0.231731250 0.229675000 0.226275000
0.255175000 0.252250000 0.247231250
0.275268750 0.273325000 0.267375000
0.295768750 0.293393750 0.285643750
0.316437500 0.313731250 0.304112500
0.336781250 0.334393750 0.323193750
0.357493750 0.354218750 0.340768750
0.374906250 0.373181250 0.358843750
0.393656250 0.390706250 0.373525000
0.409168750 0.406512500 0.388356250
0.423243750 0.421212500 0.401043750
0.437068750 0.433656250 0.412325000
0.447500000 0.445068750 0.422943750
0.457162500 0.455456250 0.431825000
0.467343750 0.464106250 0.439287500
0.475431250 0.472056250 0.446906250
0.481331250 0.479612500 0.454525000
0.487575000 0.486612500 0.460518750
0.494587500 0.492800000 0.465243750
0.501256250 0.498300000 0.469887500
0.507025000 0.503418750 0.474643750
0.511925000 0.508343750 0.479456250
0.516018750 0.513325000 0.484425000
0.519225000 0.518418750 0.489418750
0.093375000 0.093050000 0.092937500
0.094375000 0.093793750 0.093662500
0.095712500 0.094837500 0.094675000
0.096531250 0.095568750 0.095425000
0.100437500 0.099112500 0.098925000
0.113693750 0.112250000 0.112000000
0.144375000 0.143025000 0.142337500
0.199631250 0.196818750 0.194725000
0.226875000 0.223825000 0.220350000
0.253143750 0.250756250 0.246181250
0.280525000 0.277325000 0.270700000
0.303768750 0.300800000 0.292268750
0.320787500 0.318762500 0.309000000
0.338306250 0.335200000 0.323618750
0.353850000 0.351212500 0.338312500
0.369825000 0.367262500 0.353062500
0.385450000 0.383612500 0.367600000
0.401931250 0.398543750 0.380818750
0.414600000 0.413100000 0.394387500
0.429012500 0.426162500 0.405400000
0.440800000 0.437737500 0.416175000
0.450375000 0.448487500 0.426000000
0.460150000 0.457925000 0.433900000
0.469543750 0.466212500 0.441300000
0.476937500 0.473825000 0.448712500
0.482587500 0.481231250 0.455918750
0.488925000 0.487975000 0.461637500
0.495975000 0.493937500 0.466137500
0.502425000 0.499300000 0.470750000
0.507993750 0.504368750 0.475506250
0.512725000 0.509237500 0.480337500
0.516631250 0.514218750 0.485318750
0.519687500 0.519312500 0.490312500
0.096662500 0.095656250 0.095443750
0.097837500 0.096725000 0.096618750
0.099250000 0.098193750 0.098156250
0.100662500 0.099737500 0.099600000
0.102606250 0.101356250 0.101200000
0.111250000 0.109987500 0.109500000
0.132756250 0.131500000 0.131075000
0.177868750 0.176131250 0.174475000
0.247006250 0.243850000 0.239600000
0.275450000 0.272456250 0.266187500
0.297193750 0.295443750 0.287487500
0.322093750 0.319212500 0.309500000
0.343925000 0.341100000 0.329075000
0.360681250 0.359075000 0.345881250
0.375318750 0.372306250 0.357243750
0.387931250 0.385693750 0.369675000
0.400675000 0.397975000 0.380468750
0.412800000 0.410368750 0.391618750
0.424743750 0.422500000 0.402237500
0.436668750 0.433525000 0.412256250
0.446518750 0.443925000 0.421856250
0.455050000 0.453737500 0.430512500
0.464875000 0.462012500 0.437462500
0.472993750 0.469656250 0.444625000
0.479268750 0.477018750 0.451868750
0.485306250 0.483881250 0.458106250
0.491493750 0.490262500 0.463337500
0.498312500 0.495837500 0.467762500
0.504337500 0.501018750 0.472331250
0.509568750 0.505906250 0.477043750
0.513987500 0.510725000 0.481825000
0.517568750 0.515650000 0.486750000
0.520743750 0.520612500 0.491437500
0.100800000 0.100000000 0.099850000
0.102437500 0.101406250 0.101206250
0.104375000 0.103225000 0.103100000
0.106462500 0.105668750 0.105537500
0.108050000 0.107350000 0.107175000
0.112937500 0.111712500 0.111356250
0.128500000 0.127112500 0.126800000
0.161150000 0.159481250 0.158506250
0.219300000 0.217300000 0.214550000
0.287681250 0.285731250 0.279075000
0.319700000 0.316937500 0.307487500
0.339662500 0.336993750 0.325162500
0.359975000 0.357300000 0.344250000
0.379606250 0.377325000 0.361931250
0.396000000 0.393737500 0.376825000
0.409025000 0.406612500 0.388018750
0.419350000 0.416800000 0.397350000
0.429462500 0.426850000 0.406281250
0.438550000 0.435762500 0.414337500
0.446987500 0.444556250 0.422275000
0.454875000 0.453100000 0.429900000
0.463525000 0.460918750 0.436525000
0.471362500 0.468125000 0.443175000
0.477687500 0.475112500 0.449956250
0.483600000 0.481750000 0.456000000
0.489287500 0.488025000 0.461587500
0.495712500 0.493725000 0.466100000
0.501856250 0.498900000 0.470437500
0.507300000 0.503725000 0.474925000
0.511906250 0.508425000 0.479525000
0.515825000 0.513137500 0.484237500
0.518956250 0.518012500 0.489062500
0.523050000 0.522450000 0.492750000
0.107131250 0.106256250 0.106000000
0.108762500 0.107893750 0.107668750
0.110725000 0.110037500 0.109800000
0.114362500 0.113156250 0.112787500
0.117025000 0.115587500 0.115287500
0.119200000 0.118450000 0.118350000
0.129137500 0.127787500 0.127531250
0.154187500 0.152512500 0.151800000
0.199762500 0.197481250 0.195156250
0.259043750 0.258243750 0.253612500
0.326062500 0.325193750 0.315431250
0.360050000 0.358300000 0.345406250
0.378362500 0.375506250 0.360043750
0.395793750 0.392818750 0.376031250
0.412525000 0.410450000 0.391525000
0.428112500 0.425193750 0.404768750
0.439825000 0.438156250 0.416593750
0.448650000 0.446018750 0.423418750
0.455912500 0.453056250 0.429762500
0.461937500 0.459656250 0.435687500
0.468300000 0.465437500 0.440750000
0.474106250 0.471300000 0.446262500
0.479256250 0.477218750 0.451962500
0.484837500 0.482987500 0.457018750
0.490200000 0.488550000 0.461937500
0.495781250 0.493787500 0.466250000
0.501543750 0.498668750 0.470343750
0.506731250 0.503337500 0.474606250
0.511243750 0.507800000 0.478925000
0.515087500 0.512312500 0.483356250
0.518181250 0.516856250 0.487956250
0.521875000 0.521268750 0.491768750
0.526481250 0.525187500 0.494793750
0.115812500 0.114600000 0.114112500
0.117743750 0.116387500 0.116050000
0.119625000 0.118650000 0.118500000
0.123081250 0.122318750 0.122037500
0.127562500 0.126225000 0.125700000
0.130762500 0.129037500 0.128606250
0.135012500 0.134212500 0.134062500
0.152506250 0.151356250 0.150625000
0.190025000 0.188737500 0.186950000
0.240856250 0.238006250 0.233625000
0.297037500 0.296112500 0.288212500
0.361175000 0.359006250 0.346037500
0.397975000 0.396250000 0.379512500
0.414068750 0.411487500 0.392250000
0.429700000 0.426400000 0.405875000
0.442925000 0.441481250 0.419856250
0.457075000 0.455175000 0.431612500
0.467600000 0.464843750 0.440287500
0.474500000 0.472150000 0.447287500
0.479075000 0.477375000 0.452131250
0.483900000 0.481862500 0.455787500
0.488037500 0.485775000 0.459137500
0.491800000 0.489612500 0.462675000
0.495593750 0.493650000 0.466325000
0.500262500 0.497650000 0.469587500
0.504781250 0.501593750 0.473075000
0.508912500 0.505600000 0.476850000
0.512687500 0.509643750 0.480775000
0.515950000 0.513737500 0.484837500
0.519056250 0.517900000 0.488731250
0.522737500 0.521737500 0.492075000
0.526818750 0.525450000 0.495050000
0.531100000 0.528937500 0.497862500
0.125806250 0.125118750 0.124587500
0.128425000 0.127162500 0.126600000
0.131293750 0.129587500 0.129175000
0.134787500 0.133462500 0.133312500
0.139556250 0.138843750 0.138462500
0.144250000 0.142818750 0.141950000
0.149475000 0.147431250 0.146618750
0.159406250 0.157818750 0.156806250
0.187687500 0.185500000 0.183631250
0.229537500 0.228225000 0.224906250
0.279268750 0.275681250 0.269006250
0.332612500 0.331887500 0.321068750
0.393475000 0.389937500 0.373250000
0.433862500 0.430850000 0.410250000
0.447087500 0.445293750 0.422800000
0.460568750 0.457956250 0.434006250
0.472943750 0.469731250 0.444818750
0.482300000 0.480950000 0.455525000
0.492237500 0.489868750 0.462800000
0.498725000 0.496125000 0.468562500
0.502425000 0.499637500 0.471593750
0.505593750 0.502637500 0.474237500
0.508081250 0.505162500 0.476537500
0.510181250 0.507312500 0.478562500
0.512412500 0.509787500 0.480912500
0.514662500 0.512475000 0.483593750
0.516818750 0.515481250 0.486518750
0.519900000 0.518393750 0.488943750
0.523125000 0.521537500 0.491675000
0.526250000 0.524725000 0.494400000
0.529756250 0.527825000 0.497068750
0.533456250 0.530881250 0.499643750
0.537025000 0.533906250 0.502331250
0.138575000 0.138300000 0.138175000
0.141381250 0.140762500 0.140212500
0.144925000 0.143562500 0.142737500
0.149737500 0.147718750 0.146837500
0.155175000 0.153900000 0.153075000
0.160950000 0.160006250 0.158712500
0.166825000 0.164700000 0.163300000
0.174231250 0.172325000 0.171200000
0.193050000 0.191450000 0.189750000
0.225418750 0.224406250 0.221662500
0.267400000 0.265725000 0.259937500
0.316012500 0.312318750 0.302700000
0.366050000 0.365000000 0.351600000
0.423112500 0.419987500 0.399750000
0.463862500 0.460512500 0.436187500
0.477668750 0.475837500 0.450893750
0.488475000 0.486575000 0.459975000
0.498618750 0.496162500 0.468368750
0.507800000 0.504675000 0.476037500
0.514681250 0.512456250 0.483456250
0.519350000 0.517950000 0.488450000
0.522875000 0.520856250 0.490768750
0.524587500 0.522437500 0.492162500
0.526262500 0.523981250 0.493500000
0.527400000 0.525025000 0.494450000
0.528406250 0.526018750 0.495387500
0.529762500 0.527412500 0.496725000
0.531375000 0.529118750 0.498325000
0.533550000 0.531000000 0.499875000
0.536050000 0.533162500 0.501775000
0.538712500 0.535475000 0.503862500
0.541375000 0.537956250 0.506175000
0.544000000 0.540525000 0.508675000
0.156018750 0.154762500 0.153950000
0.157925000 0.157512500 0.156662500
0.161618750 0.160775000 0.159512500
0.167468750 0.165443750 0.163975000
0.174431250 0.172187500 0.170962500
0.181268750 0.180250000 0.178881250
0.187956250 0.186118750 0.184006250
0.196225000 0.193375000 0.191212500
0.206056250 0.204362500 0.202037500
0.228506250 0.227725000 0.224693750
0.262487500 0.261831250 0.256781250
0.304387500 0.302437500 0.293575000
0.350750000 0.347131250 0.334250000
0.398987500 0.396000000 0.378993750
0.449075000 0.448075000 0.425468750
0.488300000 0.486987500 0.460431250
0.506806250 0.503456250 0.474893750
0.514662500 0.512300000 0.483406250
0.521756250 0.520375000 0.490662500
0.529356250 0.526950000 0.496212500
0.535425000 0.532668750 0.501406250
0.540393750 0.537256250 0.505637500
0.542906250 0.539800000 0.508143750
0.543668750 0.540568750 0.508875000
0.544281250 0.541175000 0.509425000
0.544725000 0.541668750 0.509918750
0.544868750 0.541800000 0.510031250
0.545212500 0.542106250 0.510318750
0.545987500 0.542900000 0.511093750
0.546931250 0.543975000 0.512131250
0.548256250 0.545493750 0.513625000
0.549618750 0.547237500 0.515343750
0.551062500 0.549268750 0.517368750
0.177675000 0.175387500 0.174212500
0.179737500 0.178462500 0.177393750
0.182500000 0.182175000 0.181000000
0.189025000 0.187293750 0.185181250
0.197175000 0.194312500 0.192050000
0.205368750 0.203500000 0.201381250
0.212787500 0.211600000 0.208775000
0.221031250 0.218287500 0.215000000
0.228787500 0.225637500 0.222487500
0.240362500 0.238162500 0.234156250
0.264250000 0.263262500 0.257912500
0.299231250 0.298300000 0.290156250
0.338787500 0.337275000 0.325525000
0.381981250 0.379475000 0.363412500
0.428950000 0.425287500 0.404612500
0.476137500 0.472975000 0.447825000
0.513787500 0.510425000 0.481525000
0.530875000 0.528418750 0.497468750
0.538700000 0.535562500 0.504012500
0.544818750 0.541668750 0.509862500
0.549312500 0.547125000 0.515200000
0.552843750 0.551762500 0.519643750
0.556537500 0.555487500 0.522712500
0.559587500 0.557981250 0.524637500
0.560300000 0.558575000 0.525062500
0.559731250 0.558150000 0.524731250
0.559625000 0.558087500 0.524700000
0.559462500 0.557925000 0.524606250
0.559000000 0.557612500 0.524312500
0.558918750 0.557568750 0.524268750
0.559262500 0.557850000 0.524550000
0.560062500 0.558631250 0.525243750
0.561137500 0.559650000 0.526175000
0.203268750 0.200306250 0.198075000
0.205687500 0.203525000 0.201487500
0.208350000 0.207512500 0.205406250
0.214256250 0.213100000 0.210287500
0.223331250 0.220581250 0.217193750
0.233100000 0.230706250 0.227450000
0.240356250 0.239781250 0.236168750
0.245043750 0.243493750 0.239175000
0.250962500 0.248231250 0.243362500
0.258143750 0.254618750 0.249543750
0.273406250 0.270843750 0.264612500
0.298962500 0.298075000 0.290062500
0.333031250 0.332725000 0.321993750
0.369468750 0.369268750 0.355606250
0.409800000 0.409293750 0.390918750
0.454712500 0.452981250 0.429537500
0.499675000 0.497031250 0.468787500
0.535231250 0.532587500 0.501168750
0.551318750 0.549318750 0.517300000
0.558031250 0.557043750 0.524018750
0.563700000 0.561750000 0.527868750
0.568106250 0.565550000 0.531306250
0.571650000 0.568700000 0.534187500
0.574468750 0.571306250 0.536693750
0.576631250 0.573487500 0.538843750
0.577362500 0.574275000 0.539581250
0.576706250 0.573625000 0.538900000
0.575981250 0.572831250 0.538175000
0.575593750 0.572418750 0.537793750
0.575012500 0.571850000 0.537225000
0.574318750 0.571156250 0.536531250
0.574012500 0.570937500 0.536312500
0.574212500 0.571025000 0.536387500
0.232900000 0.229600000 0.226300000
0.235543750 0.232825000 0.229731250
0.238237500 0.236862500 0.233775000
0.243331250 0.242531250 0.238643750
0.251125000 0.248675000 0.243850000
0.259825000 0.256325000 0.251125000
0.266650000 0.263562500 0.258400000
0.269143750 0.267268750 0.262212500
0.271700000 0.270900000 0.265600000
0.276900000 0.275768750 0.269550000
0.285950000 0.283125000 0.275925000
0.304618750 0.302700000 0.293893750
0.332025000 0.330900000 0.320375000
0.365468750 0.363150000 0.349812500
0.401350000 0.398225000 0.380912500
0.440100000 0.436618750 0.415443750
0.480400000 0.477900000 0.452700000
0.520618750 0.519218750 0.490125000
0.554637500 0.553050000 0.520737500
0.571668750 0.568693750 0.534156250
0.578475000 0.575300000 0.540575000
0.581850000 0.579331250 0.544531250
0.584137500 0.582687500 0.547850000
0.585900000 0.585418750 0.550431250
0.587650000 0.587350000 0.552000000
0.589343750 0.588775000 0.553006250
0.590812500 0.589925000 0.553962500
0.590268750 0.589475000 0.553612500
0.588825000 0.588350000 0.552700000
0.587850000 0.587531250 0.552093750
0.587175000 0.586962500 0.551737500
0.586256250 0.586150000 0.551137500
0.585700000 0.585300000 0.550300000
0.261281250 0.257581250 0.252181250
0.263762500 0.260000000 0.254575000
0.266412500 0.262768750 0.257431250
0.269606250 0.266918750 0.261675000
0.273625000 0.272675000 0.267268750
0.281293750 0.279700000 0.273043750
0.289900000 0.286775000 0.279237500
0.294287500 0.290668750 0.282937500
0.296512500 0.292856250 0.285112500
0.299656250 0.296262500 0.288450000
0.303625000 0.301650000 0.293662500
0.314768750 0.312531250 0.303025000
0.334881250 0.333931250 0.323056250
0.363762500 0.360943750 0.347587500
0.395975000 0.392231250 0.375187500
0.429818750 0.426187500 0.405350000
0.466256250 0.462981250 0.438168750
0.504862500 0.501650000 0.472987500
0.542800000 0.539612500 0.507587500
0.574050000 0.571537500 0.536868750
0.587737500 0.587068750 0.551718750
0.593743750 0.592400000 0.556043750
0.596956250 0.595062500 0.558400000
0.599381250 0.597125000 0.560331250
0.601168750 0.598793750 0.561837500
0.602562500 0.600112500 0.563112500
0.603681250 0.601156250 0.564100000
0.604581250 0.601975000 0.564943750
0.604650000 0.602093750 0.565018750
0.603556250 0.601018750 0.563987500
0.602331250 0.599862500 0.562856250
0.601356250 0.598943750 0.562031250
0.600793750 0.598456250 0.561456250
0.284712500 0.282625000 0.275612500
0.287175000 0.284781250 0.277537500
0.290112500 0.287187500 0.279650000
0.294031250 0.290612500 0.282818750
0.299000000 0.295300000 0.287362500
0.304368750 0.301637500 0.293587500
0.310462500 0.309475000 0.300750000
0.316012500 0.314243750 0.304475000
0.317475000 0.315412500 0.305512500
0.320043750 0.317606250 0.307462500
0.323825000 0.320987500 0.310550000
0.329593750 0.326293750 0.315562500
0.342600000 0.340612500 0.328675000
0.365156250 0.362325000 0.348743750
0.393412500 0.389762500 0.372812500
0.422706250 0.420218750 0.399962500
0.454162500 0.452887500 0.429587500
0.488500000 0.487650000 0.461431250
0.525087500 0.524287500 0.494400000
0.560487500 0.559725000 0.526718750
0.589587500 0.588650000 0.553225000
0.604106250 0.601818750 0.564800000
0.608625000 0.606325000 0.569125000
0.610662500 0.608625000 0.571431250
0.612050000 0.610425000 0.573225000
0.613018750 0.611843750 0.574625000
0.613687500 0.612862500 0.575687500
0.614175000 0.613668750 0.576481250
0.614612500 0.614312500 0.577075000
0.615106250 0.614775000 0.577443750
0.614412500 0.613912500 0.576625000
0.613587500 0.612506250 0.575312500
0.612825000 0.611362500 0.574187500
0.308068750 0.306300000 0.297993750
0.309393750 0.308518750 0.300031250
0.311693750 0.310775000 0.301868750
0.315225000 0.313868750 0.304406250
0.319893750 0.317981250 0.307962500
0.325862500 0.323175000 0.312537500
0.332975000 0.329531250 0.318462500
0.338337500 0.335118750 0.323950000
0.339481250 0.336587500 0.325362500
0.340662500 0.338093750 0.326812500
0.342412500 0.340662500 0.329275000
0.345987500 0.344637500 0.332675000
0.353800000 0.351312500 0.338250000
0.369737500 0.367718750 0.353800000
0.393681250 0.390206250 0.373293750
0.419406250 0.417568750 0.397681250
0.447262500 0.446543750 0.424681250
0.479893750 0.476868750 0.451475000
0.513618750 0.510131250 0.480981250
0.547806250 0.544618750 0.512400000
0.580093750 0.577312500 0.542243750
0.604831250 0.603006250 0.566006250
0.616350000 0.615743750 0.578293750
0.620856250 0.619656250 0.581612500
0.622993750 0.621512500 0.583293750
0.624606250 0.622900000 0.584562500
0.625700000 0.623856250 0.585475000
0.626431250 0.624550000 0.586118750
0.626975000 0.625037500 0.586650000
0.627387500 0.625400000 0.587018750
0.627706250 0.625700000 0.587268750
0.627556250 0.625625000 0.587181250
0.626337500 0.624531250 0.586168750
0.331575000 0.328450000 0.317550000
0.333418750 0.330168750 0.319100000
0.335450000 0.332075000 0.320900000
0.338156250 0.334825000 0.323468750
