cube-lut-app/app/src/main/assets/luts/WarmNegx33.cube
TITLE "WarmNegative"
#LUMIXPHOTOSTYLE STD
DOMAIN_MIN 0 0 0
DOMAIN_MAX 1 1 1
LUT_3D_SIZE 33
0.039216000 0.019608000 0.000000000
0.035416562 0.019608000 0.000000000
0.035294000 0.015931125 0.000000000
0.031373000 0.019240313 0.003922000
0.049999625 0.015686000 0.000000000
0.075980063 0.019608000 0.000000000
0.124264938 0.029902250 0.000000000
0.178309094 0.044485406 0.000000000
0.228431250 0.065686500 0.000000000
0.279657188 0.086887094 0.000000000
0.323284500 0.107353062 0.000000000
0.360538906 0.127940938 0.000000000
0.398039375 0.148529125 0.000000000
0.427328250 0.165440781 0.000000000
0.464215625 0.184803688 0.000000000
0.496446156 0.200245125 0.000000000
0.529412000 0.215686500 0.000000000
0.554534375 0.229289437 0.000000000
0.582842937 0.242647313 0.000000000
0.622058844 0.262010219 0.000000000
0.652941250 0.277451125 0.000000000
0.683823406 0.292892031 0.000000000
0.717401563 0.308332938 0.000000000
0.745587969 0.322671781 0.000000000
0.776470500 0.335293750 0.000000000
0.802573594 0.346813656 0.003431312
0.821813937 0.359068750 0.035049312
0.844362469 0.373774469 0.063970469
0.863725375 0.389215375 0.087745500
0.879533969 0.404289594 0.110171594
0.898284125 0.412010062 0.117892125
0.910049094 0.419730531 0.121569000
0.905882000 0.415686000 0.117647000
0.035171469 0.011765000 0.000000000
0.047059000 0.011887531 0.000000000
0.043382094 0.015686000 0.000000000
0.043014469 0.015686000 0.000000000
0.053799063 0.015686000 0.000000000
0.065441531 0.019608000 0.000000000
0.109926125 0.030515062 0.000000000
0.159558812 0.042156719 0.000000000
0.212745250 0.063725750 0.000000000
0.270587875 0.085784312 0.000000000
0.315318937 0.106127437 0.000000000
0.359190719 0.127940938 0.000000000
0.400490000 0.152451125 0.000000000
0.431127687 0.169240219 0.000000000
0.471936500 0.188603125 0.000000000
0.506127094 0.204044031 0.000000000
0.537009906 0.219484969 0.000000000
0.560171281 0.233088406 0.000000000
0.594730437 0.250367750 0.000000000
0.628063438 0.265808687 0.000000000
0.656740094 0.277451125 0.000000000
0.687622500 0.295343281 0.000000000
0.718504656 0.308332938 0.000000000
0.745587969 0.319852844 0.000000000
0.775490250 0.335293750 0.000000000
0.802573594 0.346813656 0.002573594
0.821936469 0.358456094 0.027450625
0.844362469 0.373774469 0.063970469
0.863725375 0.389215375 0.084436312
0.879533969 0.400857844 0.110171594
0.898529188 0.412010062 0.117769563
0.910171656 0.419730531 0.117892125
0.917401906 0.423406469 0.121446437
0.058088687 0.019362875 0.000000000
0.039461062 0.011765000 0.000000000
0.043382125 0.011765000 0.000000000
0.046813875 0.011765000 0.000000000
0.054411750 0.015440937 0.000000000
0.079289250 0.022916344 0.000000000
0.116912062 0.033823437 0.000000000
0.156494750 0.045343344 0.000000000
0.208823250 0.063725750 0.000000000
0.263112531 0.085784313 0.000000000
0.314461000 0.106372562 0.000000000
0.356617562 0.129289125 0.000000000
0.398039375 0.152451125 0.000000000
0.431250250 0.171691469 0.000000000
0.473529437 0.188725688 0.000000000
0.504779281 0.204166594 0.000000000
0.539215500 0.221568500 0.000000000
0.568137281 0.235049406 0.000000000
0.604656500 0.254411750 0.000000000
0.637500313 0.269853219 0.000000000
0.670588313 0.285049000 0.000000000
0.699019875 0.299142125 0.000000000
0.726225750 0.312009813 0.000000000
0.753186563 0.323774844 0.000000000
0.780147375 0.337990125 0.000000000
0.806495375 0.346813656 0.001715656
0.825734938 0.361274312 0.030882375
0.844975281 0.373774469 0.060662125
0.863480313 0.388970313 0.083578500
0.879533969 0.400367688 0.109926469
0.898529188 0.412010062 0.117647000
0.910294187 0.419730531 0.117769563
0.929166875 0.431127875 0.125244937
0.077328125 0.027083312 0.003554313
0.043014500 0.011519875 0.000000000
0.050489812 0.018872719 0.000000000
0.057721031 0.022426125 0.000000000
0.065441469 0.022793719 0.000000000
0.086887156 0.026470594 0.000000000
0.124264844 0.038113031 0.000000000
0.163970281 0.049754594 0.000000000
0.208823250 0.067279312 0.000000000
0.259681594 0.083701281 0.000000000
0.305882156 0.106127438 0.000000000
0.349142250 0.125735469 0.000000000
0.393014688 0.152451125 0.000000000
0.430024625 0.171691469 0.000000000
0.472059063 0.192279094 0.000000000
0.506372188 0.207720906 0.000000000
0.537622594 0.223529500 0.000000000
0.568137281 0.238970406 0.000000000
0.604656500 0.254411750 0.000000000
0.637745438 0.269853219 0.000000000
0.670465688 0.285294125 0.000000000
0.703063469 0.300735031 0.000000000
0.730759562 0.314950625 0.000000000
0.761274687 0.327695844 0.000000000
0.788235500 0.339215750 0.000000000
0.813970687 0.350735656 0.004289250
0.833211062 0.365808875 0.037867531
0.851838031 0.377328781 0.060662125
0.871200781 0.392769687 0.090931344
0.890563688 0.403921906 0.109436312
0.905759531 0.412010062 0.113970125
0.910661781 0.416298781 0.114215250
0.940440719 0.438848313 0.129412000
0.044608125 0.049019250 0.013725250
0.036764625 0.054902344 0.013970344
0.026470250 0.062255188 0.010784625
0.051837906 0.062500344 0.020587875
0.105882375 0.066666500 0.000000000
0.131985344 0.073896719 0.000000000
0.168627813 0.080392500 0.000000000
0.209558937 0.091421344 0.000000000
0.250980375 0.102941250 0.000000000
0.285784531 0.114951125 0.000000000
0.320833500 0.130637312 0.000000000
0.356005000 0.143382500 0.000000000
0.396568875 0.159804000 0.000000000
0.427941187 0.176225406 0.000000000
0.462009500 0.195588313 0.000000000
0.498529188 0.211029219 0.000000000
0.531862625 0.226470625 0.000000000
0.562132250 0.238480281 0.000000000
0.600245250 0.253921625 0.000000000
0.633823437 0.273284094 0.000000000
0.664216000 0.284803875 0.000000000
0.695097938 0.302328469 0.000000000
0.725980625 0.315686125 0.000000000
0.754044219 0.327205719 0.000000000
0.783333125 0.342156625 0.000000000
0.808088031 0.352818562 0.012867750
0.830882688 0.367401625 0.045098125
0.847426656 0.380146844 0.065196313
0.866666875 0.394607500 0.091666875
0.885539656 0.403676781 0.108088281
0.901225687 0.414950750 0.116421500
0.917524406 0.422793750 0.120220906
0.936764750 0.438725750 0.135294250
0.049141875 0.052451062 0.018382531
0.035171469 0.084926844 0.023529000
0.027451000 0.084681781 0.023161406
0.034436156 0.088602844 0.022916344
0.081005000 0.088235188 0.015686063
0.131494875 0.095588063 0.000000000
0.165073219 0.099387500 0.000000000
0.203186219 0.107107938 0.000000000
0.242157000 0.115073438 0.000000000
0.282353281 0.129288875 0.000000000
0.315441500 0.141421594 0.000000000
0.353431094 0.152941344 0.000000000
0.389583094 0.165073219 0.000000000
0.424387500 0.180514969 0.000000000
0.451960937 0.195955875 0.000000000
0.484926750 0.211396937 0.000000000
0.521568500 0.225490500 0.000000000
0.556372813 0.238970406 0.000000000
0.592892500 0.254411750 0.000000000
0.629901844 0.273774219 0.000000000
0.660784250 0.287745375 0.000000000
0.691667062 0.302696031 0.000000000
0.723161687 0.316176250 0.000000000
0.753431688 0.331617844 0.000000000
0.784313500 0.343137000 0.000000000
0.809558656 0.354656656 0.010416594
0.829656938 0.368749719 0.042157125
0.848897281 0.381617469 0.068505125
0.867647375 0.396568250 0.091666625
0.887010281 0.408210688 0.110171594
0.902206063 0.415931125 0.117647000
0.918259750 0.423896656 0.121814094
0.941176000 0.442524344 0.137255000
0.062009812 0.080147063 0.025980437
0.049386906 0.106740312 0.040931250
0.045588375 0.103921313 0.040931250
0.053431344 0.107230469 0.040931250
0.058333688 0.115441062 0.038970875
0.108333375 0.118872781 0.030269969
0.161764875 0.127206062 0.007107812
0.203553750 0.131127250 0.000000000
0.243137500 0.140196125 0.000000000
0.277206031 0.145711000 0.000000000
0.319362500 0.160784500 0.000000000
0.357965750 0.169730250 0.000000000
0.396569000 0.179902125 0.000000000
0.428186187 0.193014531 0.000000000
0.455147000 0.203676313 0.000000000
0.488847750 0.219117406 0.000000000
0.524754625 0.231862750 0.000000000
0.556372813 0.246078219 0.000000000
0.592157125 0.257597938 0.000000000
0.625980437 0.276960844 0.000000000
0.657598000 0.289216125 0.000000000
0.689093250 0.303921656 0.000000000
0.722548875 0.318872625 0.000000000
0.750245063 0.331617844 0.000000000
0.781372750 0.345343125 0.000000000
0.809558656 0.354656656 0.003431312
0.829656938 0.369362562 0.035049312
0.848897281 0.381617469 0.059436312
0.868137500 0.394362812 0.086274562
0.887010281 0.407475500 0.106617281
0.901470688 0.415931125 0.113725000
0.922059187 0.427083281 0.121814094
0.948284625 0.446323625 0.144362625
0.075857625 0.102450687 0.033578344
0.060906781 0.127573781 0.050122281
0.057353250 0.127696344 0.050122281
0.053676469 0.124142031 0.050122281
0.068749906 0.127206094 0.048774219
0.081250031 0.145588469 0.056250406
0.134681531 0.149754781 0.041053687
0.192646688 0.157352688 0.010907062
0.239092937 0.167156937 0.000122563
0.276225656 0.169117688 0.000000000
0.314215875 0.180147188 0.000000000
0.354043750 0.188235437 0.000000000
0.402083531 0.196813594 0.000000000
0.435906625 0.208456031 0.000000000
0.462867438 0.221446094 0.000000000
0.493750250 0.231740156 0.000000000
0.530514562 0.242279562 0.000000000
0.563357875 0.253799156 0.000000000
0.598161687 0.269240375 0.000000000
0.629044125 0.284681281 0.000000000
0.658333000 0.294730437 0.000000000
0.689460938 0.307720312 0.000000000
0.717401562 0.320097938 0.000000000
0.746445906 0.331617844 0.000000000
0.782230469 0.347058750 0.000000000
0.809558656 0.357720719 0.001715656
0.829656938 0.370097750 0.031985437
0.848897281 0.381617469 0.061274938
0.867647375 0.397058500 0.087745500
0.887010281 0.408210688 0.103186312
0.901348125 0.418750063 0.112622219
0.922181719 0.427818656 0.118872594
0.956005063 0.450122281 0.148162063
0.069607750 0.136274250 0.055882750
0.066544437 0.141053469 0.061764750
0.066176687 0.143382312 0.061764750
0.071568750 0.146078750 0.064706250
0.087255125 0.151961000 0.067647000
0.100367437 0.166421531 0.071568750
0.127941312 0.181617375 0.075490000
0.183210844 0.197181781 0.058088688
0.249019500 0.200980250 0.014706000
0.301225219 0.206739969 0.000122563
0.334313625 0.215440938 0.000000000
0.375244906 0.219607750 0.000000000
0.415196000 0.230882500 0.000000000
0.445220469 0.238602938 0.000000000
0.481618000 0.247303875 0.000000000
0.516176469 0.256005031 0.000000000
0.544117750 0.265686500 0.000000000
0.576838250 0.275367688 0.000000000
0.611029250 0.287009875 0.000000000
0.637744938 0.296691312 0.000000000
0.667647250 0.307352875 0.000000000
0.697181219 0.318995094 0.000000000
0.722549125 0.328921688 0.000000000
0.753553750 0.343382344 0.000000000
0.784313500 0.354902000 0.002941250
0.808455875 0.366421375 0.021936000
0.827696250 0.376960562 0.044117625
0.847916531 0.388480469 0.066543781
0.867156625 0.400980625 0.091176625
0.886642188 0.412132188 0.107842750
0.902205625 0.420833125 0.116667000
0.920098187 0.429779625 0.121691062
0.951961000 0.449019250 0.148039500
0.107598156 0.156372312 0.067279375
0.085049375 0.173284625 0.084191438
0.081495062 0.165563437 0.080147156
0.080882344 0.165318375 0.080147156
0.085294500 0.169240094 0.082966094
0.099755156 0.176470437 0.086887094
0.112254437 0.188480594 0.091176781
0.143014594 0.203921500 0.094730375
0.197916594 0.226103344 0.083945969
0.272916531 0.230882313 0.029166875
0.329289094 0.237499719 0.028308812
0.365808750 0.244975344 0.000000000
0.404412000 0.254044344 0.000000000
0.444117437 0.261764781 0.000000000
0.476593438 0.265563656 0.000000000
0.517401812 0.276470750 0.000000000
0.549877219 0.284926594 0.000000000
0.585538969 0.293750125 0.000000000
0.619730406 0.301470594 0.000000000
0.644485375 0.312009688 0.000000000
0.675367844 0.320833250 0.000000000
0.702083219 0.331004969 0.000000000
0.729289094 0.342524469 0.000000000
0.762377750 0.354044062 0.000000000
0.795098250 0.365563687 0.003921500
0.814338375 0.377083594 0.031740250
0.837499938 0.388602781 0.063848156
0.856127469 0.400612813 0.083578469
0.874387313 0.410661938 0.102451125
0.890931281 0.418872531 0.111642062
0.908946000 0.430515000 0.117647000
0.922059188 0.435539094 0.125612562
0.956863000 0.452083062 0.156863000
0.120343375 0.184558750 0.081127375
0.090196000 0.202941125 0.099510062
0.090441125 0.192401750 0.095833187
0.088970688 0.188480437 0.095588063
0.092892375 0.189215812 0.099019812
0.100735531 0.195710781 0.100122719
0.115686187 0.203921500 0.107353062
0.128431625 0.219362406 0.114338125
0.164950625 0.237744812 0.114215563
0.223774594 0.260907156 0.106495219
0.304902125 0.267156875 0.039705875
0.360171594 0.272181281 0.024264625
0.400244938 0.283823437 0.006127375
0.440686562 0.286151844 0.000000000
0.472059063 0.292647000 0.000000000
0.515686094 0.297059125 0.000000000
0.552205625 0.308087937 0.000000000
0.592279625 0.314583562 0.000000000
0.625245000 0.323529312 0.000000000
0.656127531 0.331250062 0.000000000
0.683088313 0.338970500 0.000000000
0.708700906 0.346691281 0.000000000
0.735784250 0.355637375 0.000000000
0.766666750 0.367279125 0.000000000
0.796813688 0.376225625 0.005637375
0.818259594 0.386642000 0.036519969
0.841421750 0.396323437 0.072058562
0.856740281 0.407230500 0.084191281
0.875490375 0.414950938 0.103676437
0.893627656 0.425367750 0.110539281
0.910049062 0.435539125 0.117647000
0.924632344 0.442034250 0.124387250
0.960784000 0.454902000 0.156863000
0.134558969 0.208945750 0.092769812
0.100612813 0.229901937 0.117524781
0.096936219 0.222304000 0.111274094
0.096691156 0.218504625 0.111028969
0.096691156 0.214706062 0.111028969
0.103921344 0.215563781 0.111764344
0.116176438 0.223284406 0.118137437
0.131985156 0.238725312 0.126715969
0.144607812 0.254166875 0.124877437
0.190441344 0.276348062 0.141298906
0.249509781 0.299387188 0.132598031
0.331862938 0.312254937 0.082230781
0.396201344 0.312254937 0.054902312
0.440441437 0.317279656 0.026960969
0.476348313 0.322304062 0.001102969
0.508455750 0.328676313 0.000000000
0.549019500 0.337744938 0.000000000
0.595588281 0.343627594 0.000000000
0.630392063 0.348896781 0.000000000
0.665441156 0.354411687 0.000000000
0.687867938 0.360661781 0.000000000
0.716421375 0.364583125 0.000000000
0.748651687 0.373652094 0.000000000
0.775857906 0.382720750 0.001103063
0.801593062 0.391421719 0.019853219
0.824754750 0.402083344 0.048161531
0.844607563 0.409804156 0.073897000
0.860049469 0.417524625 0.086764938
0.879411500 0.422671406 0.102451125
0.900980406 0.434313844 0.109804000
0.912867406 0.442034281 0.113725000
0.929657094 0.447181531 0.121814094
0.964706000 0.457475812 0.160784000
0.123039250 0.256862875 0.127940750
0.108333250 0.265563719 0.136641937
0.109803687 0.261519813 0.135293750
0.111764750 0.260171687 0.133823375
0.116666625 0.256372500 0.136274625
0.123896813 0.254289469 0.139583594
0.131617250 0.261274563 0.143382250
0.146323594 0.272181656 0.148039250
0.164215875 0.287255125 0.154411875
0.186151750 0.304043969 0.160906594
0.220098187 0.328431250 0.177940875
0.295342969 0.351347875 0.164215938
0.373529375 0.366666875 0.118137000
0.439338156 0.368137250 0.086397062
0.481127625 0.373284312 0.065931062
0.520343063 0.373529375 0.049387469
0.558823375 0.376960750 0.028921625
0.596936375 0.382842750 0.020220781
0.629901750 0.386029375 0.012990187
0.664828500 0.390686375 0.014705625
0.700490250 0.393627500 0.017156875
0.728553844 0.402328562 0.019608125
0.755637187 0.407598062 0.020833437
0.777450688 0.410293750 0.028921688
0.805392375 0.415686125 0.051470625
0.827573469 0.421936594 0.072304281
0.846813812 0.428186313 0.086764500
0.865441344 0.433455687 0.095710656
0.883333500 0.438725375 0.104901625
0.899632344 0.444362750 0.110661688
0.918382125 0.454166750 0.114461062
0.930882094 0.460906906 0.124999844
0.967156750 0.474019500 0.160294250
0.165440781 0.257965469 0.122303781
0.119853125 0.296936375 0.155882313
0.120220812 0.297426594 0.156249938
0.116053688 0.292034250 0.153676781
0.119485437 0.288235406 0.156004875
0.125612969 0.285171750 0.156740250
0.133333406 0.283088187 0.159191281
0.139460344 0.292401937 0.161519781
0.155514906 0.304044219 0.165440781
0.178186156 0.318504625 0.172181594
0.207230406 0.338602813 0.180637437
0.229411812 0.370343281 0.203308594
0.312622594 0.386152188 0.191544250
0.393627562 0.403799250 0.152083469
0.467279719 0.409926375 0.113235125
0.512132625 0.415318594 0.109681250
0.550980000 0.419485250 0.092402344
0.593505250 0.422917000 0.079289625
0.630392062 0.425735344 0.069485156
0.664461063 0.429656938 0.065686125
0.700000250 0.434313531 0.068136969
0.729901812 0.439460594 0.067034312
0.760661812 0.445833188 0.077573969
0.789828750 0.450122469 0.089951000
0.819607750 0.448529562 0.097303844
0.841789375 0.450122469 0.108945875
0.862622656 0.452451156 0.109804000
0.881985156 0.457965469 0.109804000
0.897426469 0.460049031 0.111887031
0.914460375 0.469730469 0.117647000
0.928308875 0.475244781 0.124387281
0.943872344 0.476838094 0.139215563
0.981985312 0.482353000 0.176471000
0.178676562 0.281127812 0.139460562
0.127573594 0.322426406 0.172916719
0.124019625 0.320587937 0.170833125
0.121569000 0.318994969 0.170833125
0.121569000 0.315196188 0.170833125
0.124877344 0.314705937 0.173039250
0.133578312 0.310784375 0.176960687
0.140318281 0.314706156 0.176960687
0.157843000 0.327205750 0.176960687
0.174264875 0.339460844 0.185416500
0.196813688 0.354411625 0.192646688
0.232230375 0.373651750 0.202083344
0.258333375 0.399019875 0.225735625
0.332720313 0.423162125 0.220098156
0.420588375 0.438480500 0.177450938
0.500122563 0.445955812 0.140441000
0.546568313 0.451715813 0.143627687
0.587377219 0.454166500 0.135171750
0.624754750 0.457598250 0.124019437
0.658945750 0.463725375 0.115808875
0.697794125 0.467647375 0.117646875
0.726961063 0.470710656 0.114338344
0.758823375 0.474509875 0.122058813
0.788725687 0.477205812 0.129779281
0.816421437 0.476470875 0.131617687
0.841789375 0.478554000 0.127328531
0.864950938 0.477941187 0.119607625
0.885784594 0.478921687 0.115931125
0.905146937 0.479411937 0.115931125
0.922304281 0.486764688 0.120588406
0.937500062 0.489215875 0.135784188
0.949387625 0.488848250 0.143627219
0.988235000 0.492402125 0.176471000
0.188480594 0.304289156 0.153186594
0.135294031 0.353186094 0.188358031
0.131740094 0.349754844 0.184803719
0.126103187 0.345955781 0.184558594
0.123652031 0.345588188 0.184558594
0.124877344 0.343505156 0.184558594
0.130759656 0.343505156 0.188480594
0.145465906 0.339583156 0.190563625
0.155882500 0.345588188 0.194485156
0.170343156 0.356985312 0.199142344
0.193627063 0.370343188 0.204779406
0.213970344 0.388357719 0.212009594
0.250490125 0.409803750 0.224509875
0.285049063 0.432598031 0.247303594
0.368627781 0.459436281 0.244607781
0.453309156 0.477083750 0.204411719
0.530514656 0.482843187 0.169607906
0.581495125 0.488847750 0.169362781
0.622181469 0.492402062 0.165563875
0.660539063 0.492769750 0.157597781
0.692769906 0.496446156 0.159436219
0.724387250 0.499877375 0.156862594
0.755759844 0.500367625 0.159436219
0.782720656 0.502451187 0.160171406
0.813602938 0.506372188 0.155269625
0.840563750 0.506372188 0.151348156
0.866789375 0.504289156 0.142769781
0.888113125 0.502451187 0.131127344
0.908945937 0.502941312 0.127818625
0.926225281 0.508210625 0.131740156
0.939338031 0.512132156 0.141176469
0.951225594 0.509926063 0.149142531
0.990073437 0.506127594 0.194485156
0.170588000 0.358823500 0.190196000
0.143137000 0.384068406 0.205759937
0.141666687 0.384558625 0.206127125
0.139583594 0.386274500 0.207843000
0.139215500 0.384314000 0.209803500
0.141176500 0.384314000 0.209803500
0.146323313 0.382353000 0.211029125
0.157107625 0.382353000 0.216789281
0.168627250 0.384313750 0.220588500
0.180147156 0.393014437 0.224387438
0.198284438 0.405392063 0.228186187
0.221446125 0.418872625 0.233946156
0.250980750 0.436274375 0.240196000
0.283455875 0.452451063 0.257597781
0.324019500 0.477205812 0.274510000
0.409068500 0.504289156 0.272059281
0.488235000 0.523529000 0.241176500
0.565441500 0.529412000 0.204534250
0.614461000 0.529412000 0.197794375
0.655024750 0.531372500 0.201593313
0.692156750 0.533333000 0.198039000
0.723039062 0.535294000 0.197426344
0.753921375 0.535294000 0.193627563
0.781739906 0.535294000 0.190196000
0.811764750 0.536274500 0.186274500
0.837867594 0.537255000 0.183455563
0.862990438 0.537255000 0.177695812
0.885538969 0.535294000 0.166053844
0.905392125 0.535294000 0.158333375
0.923896688 0.537255000 0.152941000
0.935539125 0.537255000 0.150980500
0.949264594 0.538847844 0.160784500
0.976470500 0.529411500 0.194117500
0.200000000 0.364460406 0.199754875
0.158823500 0.425000281 0.231127406
0.151103031 0.417524438 0.231127406
0.147304125 0.417279375 0.227205875
0.143014438 0.413357844 0.227205875
0.139092969 0.413357844 0.227205875
0.141176000 0.411274812 0.227205875
0.146323625 0.411274812 0.230269469
0.156985281 0.414215563 0.236152187
0.171445938 0.421078563 0.241053969
0.187867625 0.429901781 0.243750125
0.209804156 0.443382187 0.251470594
0.236029594 0.455637281 0.255269688
0.274142125 0.472916625 0.264828500
0.307597750 0.490808781 0.282475562
0.360906844 0.518137188 0.298284594
0.439828250 0.544852906 0.303186219
0.521078281 0.562132250 0.272181375
0.603798656 0.575857719 0.239216000
0.655024750 0.573897250 0.234803812
0.692157250 0.573897250 0.236887375
0.726961063 0.573897250 0.238970406
0.756617563 0.575980281 0.226592906
0.784803687 0.575980281 0.218014750
0.817524719 0.575980281 0.217279375
0.845710594 0.578063844 0.212499906
0.872793938 0.579901812 0.208701187
0.897181438 0.579289156 0.204902031
0.914705500 0.578063844 0.199509812
0.929779594 0.574141844 0.197793938
0.941421125 0.570220844 0.201103125
0.953186094 0.562009750 0.197549281
0.992157000 0.544852875 0.240808844
0.207843000 0.389460750 0.219117312
0.170465437 0.448161656 0.250490312
0.162745000 0.444607813 0.246813438
0.156740000 0.440441188 0.246568312
0.151225563 0.440441188 0.244852875
0.149142125 0.440441187 0.244852875
0.146813875 0.438725313 0.244852875
0.148162063 0.440441188 0.246568312
0.155882500 0.443382250 0.249509813
0.170343156 0.447181406 0.257230250
0.185784063 0.450980563 0.258333313
0.204656719 0.465196156 0.264828469
0.228431687 0.476716063 0.268627562
0.260784250 0.488113000 0.276348000
0.293872625 0.507107750 0.286274563
0.337377313 0.521323437 0.303921469
0.391911688 0.549019500 0.321323375
0.474755094 0.575735187 0.322671688
0.551960625 0.592892500 0.295343187
0.639093156 0.606617531 0.266666531
0.690196250 0.606862625 0.254411750
0.725245187 0.605514781 0.257965719
0.757842875 0.605147187 0.252206188
0.788725687 0.605147187 0.244975563
0.818627250 0.605147187 0.241176375
0.845710594 0.606004906 0.235662031
0.874264687 0.606862625 0.234313625
0.893627594 0.605147187 0.230392062
0.912989938 0.601225187 0.228186500
0.928431406 0.598652031 0.232475188
0.939705625 0.597304188 0.231862437
0.949265094 0.586764437 0.222303937
0.990441125 0.564215313 0.260049188
0.213357906 0.412622531 0.238480219
0.182107875 0.467402000 0.265931219
0.174387438 0.469362562 0.264338313
0.168259812 0.469117438 0.262010219
0.163970219 0.468627313 0.262010219
0.162254781 0.466789344 0.260294344
0.160049219 0.466789344 0.261274844
0.161519594 0.469117438 0.262010219
0.165318406 0.470465625 0.265931219
0.174264875 0.473039437 0.268750156
0.185784063 0.475858062 0.275367531
0.197058500 0.484436500 0.279289531
0.217524594 0.493505156 0.283210531
0.249264531 0.505146813 0.287867906
0.280759969 0.517401906 0.296201000
0.321445781 0.532842812 0.307720500
0.369730375 0.554534312 0.329044312
0.426838000 0.584313531 0.348284219
0.507843062 0.605024625 0.337867438
0.582843438 0.624387531 0.316911625
0.662500187 0.636029594 0.278186406
0.718382156 0.635049406 0.269608094
0.758578656 0.628676219 0.273774219
0.786642250 0.632230531 0.270343344
0.814706000 0.631494750 0.265196437
0.841789375 0.629901844 0.262867750
0.869607719 0.629166469 0.265196437
0.885907156 0.628308531 0.263603125
0.902941375 0.624387531 0.262867750
0.920343375 0.624387531 0.267892125
0.931985156 0.621813719 0.266299156
0.942891875 0.610661594 0.252941250
0.984314000 0.589093125 0.287132531
0.208333000 0.456372750 0.262744875
0.193749906 0.494485344 0.281372500
0.190441313 0.496078250 0.280637312
0.188112688 0.496078250 0.280392250
