cube-lut-app/app/src/main/assets/luts/WarmNegx33.cube
TITLE "WarmNegative"
#LUMIXPHOTOSTYLE STD
DOMAIN_MIN 0 0 0
DOMAIN_MAX 1 1 1
LUT_3D_SIZE 5
0.039216000 0.019608000 0.000000000
0.228431250 0.065686500 0.000000000
0.529412000 0.215686500 0.000000000
0.776470500 0.335293750 0.000000000
0.905882000 0.415686000 0.117647000
0.069607750 0.136274250 0.055882750
0.249019500 0.200980250 0.014706000
0.544117750 0.265686500 0.000000000
0.784313500 0.354902000 0.002941250
0.951961000 0.449019250 0.148039500
0.170588000 0.358823500 0.190196000
0.168627250 0.384313750 0.220588500
0.488235000 0.523529000 0.241176500
0.811764750 0.536274500 0.186274500
0.976470500 0.529411500 0.194117500
0.251960750 0.541176250 0.333333250
0.236274500 0.607843250 0.369607750
0.308823500 0.645098250 0.400000000
0.714706000 0.741176500 0.401960500
0.904901750 0.715686000 0.429412000
0.603922000 0.874510000 0.784314000
0.601961000 0.813725250 0.684314000
0.615686000 0.878431000 0.768627000
0.483333500 0.815686000 0.578431250
0.823529000 0.866667000 0.745098000
0.000000000 0.000000000 0.000000000
0.023529750 0.000000000 0.005882250
0.357843000 0.129411750 0.073529500
0.618627750 0.228431250 0.000000000
0.947058750 0.466667000 0.293137500
0.112745250 0.151960750 0.088235750
0.272549500 0.220588500 0.113725500
0.629411750 0.264706000 0.000000000
0.826470500 0.355882250 0.007843000
0.988235250 0.480392500 0.192157000
0.164705500 0.355882000 0.189215500
0.178431750 0.377451250 0.228431250
0.512745000 0.542157000 0.250000250
0.848039500 0.522549000 0.156862750
0.989215750 0.533333500 0.228431250
0.254902250 0.545098000 0.326470250
0.231372500 0.617647250 0.383333500
0.368627250 0.662745250 0.453921500
0.730392000 0.750000000 0.409804250
0.918627500 0.715686000 0.440196250
0.620588250 0.871568500 0.765686250
0.601961000 0.825490250 0.699019750
0.607843000 0.872549000 0.761764750
0.580392000 0.845098250 0.671568500
0.839216000 0.873529500 0.755882500
0.184313500 0.109803500 0.231372500
0.237255000 0.124510000 0.239215750
0.380392000 0.247059000 0.280392500
0.665686250 0.418627500 0.437255000
0.925490000 0.515686000 0.476470500
0.209804000 0.206862750 0.272549000
0.255882750 0.233333250 0.423529750
0.600000000 0.441176500 0.556862750
0.787254750 0.434313500 0.393137250
0.965686500 0.481372500 0.288235250
0.258823500 0.413725500 0.288235000
0.278431250 0.500980250 0.377450750
0.631373000 0.631372500 0.576470500
0.880392500 0.476470500 0.226470500
1.000000000 0.588235500 0.411765000
0.275490500 0.565686250 0.345098250
0.308823500 0.647058750 0.436274750
0.567647000 0.728431500 0.625490500
0.751960750 0.764705750 0.496078250
0.940196000 0.705882250 0.446078500
0.582353000 0.864706000 0.747059000
0.609804000 0.852941000 0.726470750
0.594117500 0.870588000 0.750980500
0.626470500 0.883333500 0.788235250
0.843137000 0.870588000 0.760784000
0.310784250 0.200980500 0.553921750
0.395097750 0.257843500 0.686274750
0.505882000 0.387254750 0.602941000
0.713725500 0.514706000 0.685294250
0.914705500 0.646078250 0.678431500
0.294118000 0.307843250 0.547059000
0.352941000 0.334313500 0.662745000
0.550980500 0.450980250 0.715686500
0.777451250 0.605882250 0.749019750
0.887255000 0.689216000 0.742156750
0.360784500 0.468627500 0.572548750
0.297058750 0.436274750 0.582353000
0.497058750 0.516667000 0.725489750
0.810784250 0.684313750 0.783333000
0.912745250 0.712745250 0.745098000
0.396078500 0.705882000 0.601960750
0.312745250 0.713725250 0.620588250
0.499019750 0.773529250 0.710784000
0.806862750 0.793137000 0.773529000
0.908823250 0.721568500 0.688235250
0.562744750 0.850980000 0.710784000
0.585294000 0.855882500 0.696078500
0.613725500 0.899019500 0.771568250
0.729411500 0.910784250 0.833333750
0.870588000 0.878431000 0.793137250
0.403922000 0.301961000 0.725490000
0.451960750 0.330392000 0.782353250
0.523529000 0.449020000 0.754902000
0.711764750 0.598039000 0.757843250
0.898039000 0.745098000 0.819608000
0.425490500 0.424510250 0.724509750
0.451961250 0.440196250 0.752941250
0.570588250 0.519607750 0.801961000
0.751961000 0.650980250 0.795097750
0.875490000 0.744117500 0.825490250
0.472549000 0.537255000 0.737254500
0.445098250 0.512745250 0.726470250
0.574510000 0.570588500 0.813725500
0.777450750 0.685294250 0.841176500
0.884314000 0.772549000 0.839216000
0.554902250 0.694118000 0.736274500
0.542156750 0.687254500 0.733333500
0.607843250 0.716666750 0.775490250
0.749019250 0.752941250 0.825490000
0.888235250 0.809804250 0.846078250
0.564706000 0.815686000 0.745098000
0.596078000 0.827451000 0.776471000
0.625490000 0.839216000 0.800000000
0.659804250 0.862745000 0.823529000
0.874510000 0.866667000 0.850980000
